python/GafferImageTest/openColorIO/luts/pandemoniumSmall.cube
LUT_3D_SIZE 5
	0.545629 0.681713 0.550099
	0.953005 0.461622 0.708367
	0.438455 0.291331 0.692835
	0.818966 0.795657 0.409142
	0.499303 0.633336 0.242021
	0.658663 0.715236 0.789077
	0.073965 0.990701 0.479235
	0.400805 0.506613 0.920392
	0.691709 0.543645 0.790721
	0.359529 0.895502 0.536906
	0.638180 0.084982 0.768954
	0.657602 0.355009 0.647000
	0.044297 0.983608 0.677472
	0.399618 0.752683 0.965717
	0.430456 0.010548 0.258738
	0.510676 0.518798 0.580518
	0.575235 0.445779 0.391134
	0.772342 0.588590 0.500466
	0.344967 0.024563 0.104549
	0.415975 0.961728 0.116069
	0.940676 0.141675 0.311890
	0.455333 0.206867 0.482926
	0.476163 0.438166 0.696763
	0.318909 0.300264 0.810186
	0.115085 0.849180 0.647970
	0.677139 0.164354 0.983900
	0.243913 0.174453 0.160136
	0.559849 0.958463 0.231856
	0.405047 0.184452 0.640479
	0.432134 0.029192 0.614107
	0.197324 0.592203 0.388836
	0.704736 0.205784 0.752325
	0.808730 0.062564 0.101752
	0.871979 0.186960 0.325985
	0.457550 0.262353 0.862637
	0.527715 0.639109 0.596971
	0.611308 0.587005 0.347925
	0.845518 0.617363 0.813738
	0.705988 0.297445 0.614485
	0.084752 0.133948 0.117862
	0.305380 0.183045 0.693437
	0.510825 0.418239 0.137867
	0.383710 0.185754 0.635502
	0.693433 0.645260 0.999900
	0.554913 0.489642 0.140297
	0.314580 0.451001 0.053611
	0.359039 0.009583 0.136535
	0.815216 0.963829 0.505438
	0.494970 0.684697 0.415630
	0.839892 0.488700 0.082671
	0.030861 0.761057 0.292090
	0.274853 0.537609 0.168209
	0.457321 0.742518 0.765920
	0.549726 0.113211 0.114207
	0.775113 0.823283 0.366862
	0.822611 0.041611 0.718980
	0.546353 0.989776 0.102416
	0.830071 0.751345 0.297709
	0.999313 0.449732 0.348577
	0.816729 0.439070 0.993958
	0.775632 0.236946 0.810703
	0.587924 0.350631 0.710754
	0.632771 0.165982 0.139235
	0.206620 0.206943 0.059358
	0.350815 0.281085 0.538769
	0.323654 0.704054 0.289333
	0.267343 0.858017 0.985488
	0.679299 0.095225 0.962772
	0.785691 0.918769 0.992486
	0.867048 0.126888 0.866079
	0.249677 0.711395 0.828482
	0.761474 0.676235 0.489459
	0.577426 0.268717 0.414225
	0.451992 0.633628 0.880125
	0.093095 0.515613 0.278226
	0.936336 0.369071 0.950254
	0.327289 0.002473 0.774135
	0.732724 0.730932 0.458449
	0.664144 0.358223 0.063331
	0.534424 0.217830 0.429643
	0.211851 0.268537 0.828344
	0.337755 0.577934 0.566142
	0.485338 0.343740 0.682552
	0.048409 0.099575 0.783890
	0.459582 0.124237 0.857652
	0.441286 0.000676 0.958032
	0.202318 0.688592 0.131913
	0.649997 0.158977 0.932726
	0.274019 0.654588 0.250389
	0.371844 0.903800 0.165525
	0.396342 0.305509 0.699441
	0.234144 0.655485 0.703698
	0.001086 0.476807 0.132700
	0.226191 0.679983 0.009287
	0.695597 0.817109 0.988155
	0.422314 0.132175 0.070828
	0.383070 0.730763 0.102427
	0.313351 0.880989 0.137129
	0.773460 0.753158 0.133146
	0.992940 0.142853 0.530508
	0.008475 0.650020 0.440099
	0.722432 0.628080 0.151374
	0.411710 0.686566 0.859963
	0.086688 0.100465 0.752446
	0.589574 0.384032 0.963249
	0.314504 0.139830 0.276968
	0.084249 0.553397 0.600008
	0.607593 0.778970 0.690476
	0.847892 0.658405 0.301649
	0.517749 0.509523 0.747844
	0.295542 0.054569 0.897913
	0.954672 0.494888 0.112744
	0.499583 0.593930 0.528287
	0.977697 0.986883 0.933924
	0.131983 0.860814 0.568380
	0.365412 0.682942 0.762726
	0.954453 0.770367 0.016689
	0.067533 0.262185 0.039827
	0.060469 0.789290 0.506611
	0.628571 0.501049 0.415432
	0.701811 0.082428 0.536565
	0.616047 0.277468 0.309907
	0.511305 0.203197 0.808060
	0.536390 0.390732 0.634294
	0.834526 0.681056 0.066115
