python/GafferImageTest/openColorIO/luts/pandemoniumLarge1D.spi1d

Version 1
From -0.125 1.125
Length 8000
Components 1
{
	0.000000
	0.000393
	0.000785
	0.001178
	0.001571
	0.001963
	0.002356
	0.002749
	0.003142
	0.003534
	0.003927
	0.004320
	0.004712
	0.005105
	0.005498
	0.005890
	0.006283
	0.006676
	0.007069
	0.007461
	0.007854
	0.008247
	0.008639
	0.009032
	0.009425
	0.009817
	0.010210
	0.010603
	0.010995
	0.011388
	0.011781
	0.012173
	0.012566
	0.012959
	0.013351
	0.013744
	0.014137
	0.014529
	0.014922
	0.015315
	0.015707
	0.016100
	0.016493
	0.016885
	0.017278
	0.017671
	0.018063
	0.018456
	0.018848
	0.019241
	0.019634
	0.020026
	0.020419
	0.020812
	0.021204
	0.021597
	0.021989
	0.022382
	0.022775
	0.023167
	0.023560
	0.023952
	0.024345
	0.024738
	0.025130
	0.025523
	0.025915
	0.026308
	0.026700
	0.027093
	0.027485
	0.027878
	0.028271
	0.028663
	0.029056
	0.029448
	0.029841
	0.030233
	0.030626
	0.031018
	0.031411
	0.031803
	0.032196
	0.032588
	0.032981
	0.033373
	0.033766
	0.034158
	0.034551
	0.034943
	0.035336
	0.035728
	0.036120
	0.036513
	0.036905
	0.037298
	0.037690
	0.038083
	0.038475
	0.038867
	0.039260
	0.039652
	0.040045
	0.040437
	0.040829
	0.041222
	0.041614
	0.042006
	0.042399
	0.042791
	0.043183
	0.043576
	0.043968
	0.044360
	0.044753
	0.045145
	0.045537
	0.045930
	0.046322
	0.046714
	0.047106
	0.047499
	0.047891
	0.048283
	0.048675
	0.049068
	0.049460
	0.049852
	0.050244
	0.050637
	0.051029
	0.051421
	0.051813
	0.052205
	0.052597
	0.052990
	0.053382
	0.053774
	0.054166
	0.054558
	0.054950
	0.055342
	0.055734
	0.056126
	0.056519
	0.056911
	0.057303
	0.057695
	0.058087
	0.058479
	0.058871
	0.059263
	0.059655
	0.060047
	0.060439
	0.060831
	0.061223
	0.061615
	0.062007
	0.062399
	0.062791
	0.063182
	0.063574
	0.063966
	0.064358
	0.064750
	0.065142
	0.065534
	0.065926
	0.066317
	0.066709
	0.067101
	0.067493
	0.067885
	0.068276
	0.068668
	0.069060
	0.069452
	0.069844
	0.070235
	0.070627
	0.071019
	0.071410
	0.071802
	0.072194
	0.072585
	0.072977
	0.073369
	0.073760
	0.074152
	0.074544
	0.074935
	0.075327
	0.075718
	0.076110
	0.076502
	0.076893
	0.077285
	0.077676
	0.078068
	0.078459
	0.078851
	0.079242
	0.079634
	0.080025
	0.080416
	0.080808
	0.081199
	0.081591
	0.081982
	0.082373
	0.082765
	0.083156
	0.083547
	0.083939
	0.084330
	0.084721
	0.085113
	0.085504
	0.085895
	0.086286
	0.086678
	0.087069
	0.087460
	0.087851
	0.088242
	0.088634
	0.089025
	0.089416
	0.089807
	0.090198
	0.090589
	0.090980
	0.091371
	0.091762
	0.092153
	0.092544
	0.092935
	0.093326
	0.093717
	0.094108
	0.094499
	0.094890
	0.095281
	0.095672
	0.096063
	0.096454
	0.096845
	0.097235
	0.097626
	0.098017
	0.098408
	0.098799
	0.099189
	0.099580
	0.099971
	0.100362
	0.100752
	0.101143
	0.101534
	0.101924
	0.102315
	0.102706
	0.103096
	0.103487
	0.103878
	0.104268
	0.104659
	0.105049
	0.105440
	0.105830
	0.106221
	0.106611
	0.107002
	0.107392
	0.107782
	0.108173
	0.108563
	0.108954
	0.109344
	0.109734
	0.110125
	0.110515
	0.110905
	0.111295
	0.111686
	0.112076
	0.112466
	0.112856
	0.113247
	0.113637
	0.114027
	0.114417
	0.114807
	0.115197
	0.115587
	0.115977
	0.116367
	0.116757
	0.117147
	0.117537
	0.117927
	0.118317
	0.118707
	0.119097
	0.119487
	0.119877
	0.120267
	0.120657
	0.121046
	0.121436
	0.121826
	0.122216
	0.122606
	0.122995
	0.123385
	0.123775
	0.124164
	0.124554
	0.124944
	0.125333
	0.125723
	0.126112
	0.126502
	0.126891
	0.127281
	0.127670
	0.128060
	0.128449
	0.128839
	0.129228
	0.129618
	0.130007
	0.130396
	0.130786
	0.131175
	0.131564
	0.131954
	0.132343
	0.132732
	0.133121
	0.133511
	0.133900
	0.134289
	0.134678
	0.135067
	0.135456
	0.135845
	0.136234
	0.136623
	0.137012
	0.137401
	0.137790
	0.138179
	0.138568
	0.138957
	0.139346
	0.139735
	0.140124
	0.140512
	0.140901
	0.141290
	0.141679
	0.142067
	0.142456
	0.142845
	0.143234
	0.143622
	0.144011
	0.144399
	0.144788
	0.145176
	0.145565
	0.145954
	0.146342
	0.146730
	0.147119
	0.147507
	0.147896
	0.148284
	0.148672
	0.149061
	0.149449
	0.149837
	0.150226
	0.150614
	0.151002
	0.151390
	0.151778
	0.152167
	0.152555
	0.152943
	0.153331
	0.153719
	0.154107
	0.154495
	0.154883
	0.155271
	0.155659
	0.156047
	0.156434
	0.156822
	0.157210
	0.157598
	0.157986
	0.158373
	0.158761
	0.159149
	0.159537
	0.159924
	0.160312
	0.160699
	0.161087
	0.161475
	0.161862
	0.162250
	0.162637
	0.163025
	0.163412
	0.163799
	0.164187
	0.164574
	0.164962
	0.165349
	0.165736
	0.166123
	0.166511
	0.166898
	0.167285
	0.167672
	0.168059
	0.168446
	0.168833
	0.169220
	0.169608
	0.169995
	0.170381
	0.170768
	0.171155
	0.171542
	0.171929
	0.172316
	0.172703
	0.173090
	0.173476
	0.173863
	0.174250
	0.174636
	0.175023
	0.175410
	0.175796
	0.176183
	0.176569
	0.176956
	0.177342
	0.177729
	0.178115
	0.178502
	0.178888
	0.179274
	0.179661
	0.180047
	0.180433
	0.180820
	0.181206
	0.181592
	0.181978
	0.182364
	0.182750
	0.183136
	0.183522
	0.183908
	0.184294
	0.184680
	0.185066
	0.185452
	0.185838
	0.186224
	0.186610
	0.186996
	0.187381
	0.187767
	0.188153
	0.188538
	0.188924
	0.189310
	0.189695
	0.190081
	0.190466
	0.190852
	0.191237
	0.191623
	0.192008
	0.192394
	0.192779
	0.193164
	0.193549
	0.193935
	0.194320
	0.194705
	0.195090
	0.195475
	0.195861
	0.196246
	0.196631
	0.197016
	0.197401
	0.197786
	0.198171
	0.198555
	0.198940
	0.199325
	0.199710
	0.200095
	0.200479
	0.200864
	0.201249
	0.201634
	0.202018
	0.202403
	0.202787
	0.203172
	0.203556
	0.203941
	0.204325
	0.204710
	0.205094
	0.205478
	0.205863
	0.206247
	0.206631
	0.207015
	0.207400
	0.207784
	0.208168
	0.208552
	0.208936
	0.209320
	0.209704
	0.210088
	0.210472
	0.210856
	0.211240
	0.211623
	0.212007
	0.212391
	0.212775
	0.213158
	0.213542
	0.213926
	0.214309
	0.214693
	0.215076
	0.215460
	0.215843
	0.216227
	0.216610
	0.216993
	0.217377
	0.217760
	0.218143
	0.218526
	0.218910
	0.219293
	0.219676
	0.220059
	0.220442
	0.220825
	0.221208
	0.221591
	0.221974
	0.222357
	0.222740
	0.223123
	0.223505
	0.223888
	0.224271
	0.224653
	0.225036
	0.225419
	0.225801
	0.226184
	0.226566
	0.226949
	0.227331
	0.227714
	0.228096
	0.228478
	0.228861
	0.229243
	0.229625
	0.230007
	0.230389
	0.230772
	0.231154
	0.231536
	0.231918
	0.232300
	0.232682
	0.233063
	0.233445
	0.233827
	0.234209
	0.234591
	0.234972
	0.235354
	0.235736
	0.236117
	0.236499
	0.236881
	0.237262
	0.237644
	0.238025
	0.238406
	0.238788
	0.239169
	0.239550
	0.239932
	0.240313
	0.240694
	0.241075
	0.241456
	0.241837
	0.242218
	0.242599
	0.242980
	0.243361
	0.243742
	0.244123
	0.244504
	0.244884
	0.245265
	0.245646
	0.246026
	0.246407
	0.246788
	0.247168
	0.247549
	0.247929
	0.248310
	0.248690
	0.249070
	0.249451
	0.249831
	0.250211
	0.250591
	0.250971
	0.251351
	0.251732
	0.252112
	0.252492
	0.252872
	0.253251
	0.253631
	0.254011
	0.254391
	0.254771
	0.255150
	0.255530
	0.255910
	0.256289
	0.256669
	0.257048
	0.257428
	0.257807
	0.258187
	0.258566
	0.258945
	0.259325
	0.259704
	0.260083
	0.260462
	0.260842
	0.261221
	0.261600
	0.261979
	0.262358
	0.262737
	0.263115
	0.263494
	0.263873
	0.264252
	0.264631
	0.265009
	0.265388
	0.265766
	0.266145
	0.266524
	0.266902
	0.267280
	0.267659
	0.268037
	0.268415
	0.268794
	0.269172
	0.269550
	0.269928
	0.270306
	0.270684
	0.271062
	0.271440
	0.271818
	0.272196
	0.272574
	0.272952
	0.273330
	0.273707
	0.274085
	0.274463
	0.274840
	0.275218
	0.275595
	0.275973
	0.276350
	0.276728
	0.277105
	0.277482
	0.277860
	0.278237
	0.278614
	0.278991
	0.279368
	0.279745
	0.280122
	0.280499
	0.280876
	0.281253
	0.281630
	0.282007
	0.282383
	0.282760
	0.283137
	0.283513
	0.283890
	0.284266
	0.284643
	0.285019
	0.285396
	0.285772
	0.286148
	0.286525
	0.286901
	0.287277
	0.287653
	0.288029
	0.288405
	0.288781
	0.289157
	0.289533
	0.289909
	0.290285
	0.290660
	0.291036
	0.291412
	0.291787
	0.292163
	0.292539
	0.292914
	0.293290
	0.293665
	0.294040
	0.294416
	0.294791
	0.295166
	0.295541
	0.295916
	0.296292
	0.296667
	0.297042
	0.297417
	0.297791
	0.298166
	0.298541
	0.298916
	0.299291
	0.299665
	0.300040
	0.300414
	0.300789
	0.301164
	0.301538
	0.301912
	0.302287
	0.302661
	0.303035
	0.303409
	0.303784
	0.304158
	0.304532
	0.304906
	0.305280
	0.305654
	0.306028
	0.306401
	0.306775
	0.307149
	0.307523
	0.307896
	0.308270
	0.308643
	0.309017
	0.309390
	0.309764
	0.310137
	0.310511
	0.310884
	0.311257
	0.311630
	0.312003
	0.312376
	0.312749
	0.313122
	0.313495
	0.313868
	0.314241
	0.314614
	0.314987
	0.315359
	0.315732
	0.316104
	0.316477
	0.316849
	0.317222
	0.317594
	0.317967
	0.318339
	0.318711
	0.319083
	0.319456
	0.319828
	0.320200
	0.320572
	0.320944
	0.321316
	0.321687
	0.322059
	0.322431
	0.322803
	0.323174
	0.323546
	0.323917
	0.324289
	0.324660
	0.325032
	0.325403
	0.325774
	0.326146
	0.326517
	0.326888
	0.327259
	0.327630
	0.328001
	0.328372
	0.328743
	0.329114
	0.329485
	0.329855
	0.330226
	0.330597
	0.330967
	0.331338
	0.331708
	0.332079
	0.332449
	0.332820
	0.333190
	0.333560
	0.333930
	0.334300
	0.334670
	0.335040
	0.335410
	0.335780
	0.336150
	0.336520
	0.336890
	0.337260
	0.337629
	0.337999
	0.338368
	0.338738
	0.339107
	0.339477
	0.339846
	0.340215
	0.340585
	0.340954
	0.341323
	0.341692
	0.342061
	0.342430
	0.342799
	0.343168
	0.343537
	0.343906
	0.344274
	0.344643
	0.345012
	0.345380
	0.345749
	0.346117
	0.346485
	0.346854
	0.347222
	0.347590
	0.347959
	0.348327
	0.348695
	0.349063
	0.349431
	0.349799
	0.350167
	0.350534
	0.350902
	0.351270
	0.351637
	0.352005
	0.352373
	0.352740
	0.353107
	0.353475
	0.353842
	0.354209
	0.354577
	0.354944
	0.355311
	0.355678
	0.356045
	0.356412
	0.356779
	0.357146
	0.357512
	0.357879
	0.358246
	0.358612
	0.358979
	0.359345
	0.359712
	0.360078
	0.360445
	0.360811
	0.361177
	0.361543
	0.361909
	0.362275
	0.362641
	0.363007
	0.363373
	0.363739
	0.364105
	0.364470
	0.364836
	0.365202
	0.365567
	0.365933
	0.366298
	0.366664
	0.367029
	0.367394
	0.367759
	0.368125
	0.368490
	0.368855
	0.369220
	0.369585
	0.369949
	0.370314
	0.370679
	0.371044
	0.371408
	0.371773
	0.372137
	0.372502
	0.372866
	0.373231
	0.373595
	0.373959
	0.374323
	0.374688
	0.375052
	0.375416
	0.375780
	0.376143
	0.376507
	0.376871
	0.377235
	0.377598
	0.377962
	0.378326
	0.378689
	0.379052
	0.379416
	0.379779
	0.380142
	0.380506
	0.380869
	0.381232
	0.381595
	0.381958
	0.382321
	0.382683
	0.383046
	0.383409
	0.383772
	0.384134
	0.384497
	0.384859
	0.385222
	0.385584
	0.385946
	0.386309
	0.386671
	0.387033
	0.387395
	0.387757
	0.388119
	0.388481
	0.388843
	0.389204
	0.389566
	0.389928
	0.390289
	0.390651
	0.391012
	0.391374
	0.391735
	0.392096
	0.392458
	0.392819
	0.393180
	0.393541
	0.393902
	0.394263
	0.394624
	0.394984
	0.395345
	0.395706
	0.396066
	0.396427
	0.396787
	0.397148
	0.397508
	0.397869
	0.398229
	0.398589
	0.398949
	0.399309
	0.399669
	0.400029
	0.400389
	0.400749
	0.401109
	0.401468
	0.401828
	0.402187
	0.402547
	0.402906
	0.403266
	0.403625
	0.403984
	0.404344
	0.404703
	0.405062
	0.405421
	0.405780
	0.406139
	0.406497
	0.406856
	0.407215
	0.407574
	0.407932
	0.408291
	0.408649
	0.409007
	0.409366
	0.409724
	0.410082
	0.410440
	0.410798
	0.411156
	0.411514
	0.411872
	0.412230
	0.412588
	0.412945
	0.413303
	0.413661
	0.414018
	0.414376
	0.414733
	0.415090
	0.415447
	0.415805
	0.416162
	0.416519
	0.416876
	0.417233
	0.417590
	0.417946
	0.418303
	0.418660
	0.419016
	0.419373
	0.419729
	0.420086
	0.420442
	0.420798
	0.421155
	0.421511
	0.421867
	0.422223
	0.422579
	0.422935
	0.423290
	0.423646
	0.424002
	0.424357
	0.424713
	0.425069
	0.425424
	0.425779
	0.426135
	0.426490
	0.426845
	0.427200
	0.427555
	0.427910
	0.428265
	0.428620
	0.428975
	0.429329
	0.429684
	0.430038
	0.430393
	0.430747
	0.431102
	0.431456
	0.431810
	0.432164
	0.432519
	0.432873
	0.433227
	0.433580
	0.433934
	0.434288
	0.434642
	0.434995
	0.435349
	0.435702
	0.436056
	0.436409
	0.436763
	0.437116
	0.437469
	0.437822
	0.438175
	0.438528
	0.438881
	0.439234
	0.439586
	0.439939
	0.440292
	0.440644
	0.440997
	0.441349
	0.441702
	0.442054
	0.442406
	0.442758
	0.443110
	0.443462
	0.443814
	0.444166
	0.444518
	0.444870
	0.445221
	0.445573
	0.445924
	0.446276
	0.446627
	0.446979
	0.447330
	0.447681
	0.448032
	0.448383
	0.448734
	0.449085
	0.449436
	0.449787
	0.450137
	0.450488
	0.450839
	0.451189
	0.451540
	0.451890
	0.452240
	0.452590
	0.452940
	0.453291
	0.453641
	0.453990
	0.454340
	0.454690
	0.455040
	0.455390
	0.455739
	0.456089
	0.456438
	0.456787
	0.457137
	0.457486
	0.457835
	0.458184
	0.458533
	0.458882
	0.459231
	0.459580
	0.459929
	0.460277
	0.460626
	0.460974
	0.461323
	0.461671
	0.462020
	0.462368
	0.462716
	0.463064
	0.463412
	0.463760
	0.464108
	0.464456
	0.464803
	0.465151
	0.465499
	0.465846
	0.466194
	0.466541
	0.466888
	0.467236
	0.467583
	0.467930
	0.468277
	0.468624
	0.468971
	0.469317
	0.469664
	0.470011
	0.470357
	0.470704
	0.471050
	0.471397
	0.471743
	0.472089
	0.472435
	0.472781
	0.473127
	0.473473
	0.473819
	0.474165
	0.474511
	0.474856
	0.475202
	0.475547
	0.475893
	0.476238
	0.476583
	0.476929
	0.477274
	0.477619
	0.477964
	0.478309
	0.478654
	0.478998
	0.479343
	0.479688
	0.480032
	0.480377
	0.480721
	0.481065
	0.481410
	0.481754
	0.482098
	0.482442
	0.482786
	0.483130
	0.483473
	0.483817
	0.484161
	0.484504
	0.484848
	0.485191
	0.485535
	0.485878
	0.486221
	0.486564
	0.486907
	0.487250
	0.487593
	0.487936
	0.488279
	0.488621
	0.488964
	0.489306
	0.489649
	0.489991
	0.490333
	0.490676
	0.491018
	0.491360
	0.491702
	0.492044
	0.492386
	0.492727
	0.493069
	0.493411
	0.493752
	0.494094
	0.494435
	0.494776
	0.495118
	0.495459
	0.495800
	0.496141
	0.496482
	0.496822
	0.497163
	0.497504
	0.497845
	0.498185
	0.498526
	0.498866
	0.499206
	0.499546
	0.499887
	0.500227
	0.500567
	0.500907
	0.501246
	0.501586
	0.501926
	0.502266
	0.502605
	0.502945
	0.503284
	0.503623
	0.503962
	0.504302
	0.504641
	0.504980
	0.505319
	0.505657
	0.505996
	0.506335
	0.506673
	0.507012
	0.507350
	0.507689
	0.508027
	0.508365
	0.508703
	0.509041
	0.509379
	0.509717
	0.510055
	0.510393
	0.510730
	0.511068
	0.511406
	0.511743
	0.512080
	0.512418
	0.512755
	0.513092
	0.513429
	0.513766
	0.514103
	0.514440
	0.514776
	0.515113
	0.515449
	0.515786
	0.516122
	0.516459
	0.516795
	0.517131
	0.517467
	0.517803
	0.518139
	0.518475
	0.518811
	0.519146
	0.519482
	0.519817
	0.520153
	0.520488
	0.520823
	0.521159
	0.521494
	0.521829
	0.522164
	0.522499
	0.522833
	0.523168
	0.523503
	0.523837
	0.524172
	0.524506
	0.524840
	0.525175
	0.525509
	0.525843
	0.526177
	0.526511
	0.526845
	0.527178
	0.527512
	0.527846
	0.528179
	0.528512
	0.528846
	0.529179
	0.529512
	0.529845
	0.530178
	0.530511
	0.530844
	0.531177
	0.531509
	0.531842
	0.532175
	0.532507
	0.532839
	0.533172
	0.533504
	0.533836
	0.534168
	0.534500
	0.534832
	0.535163
	0.535495
	0.535827
	0.536158
	0.536490
	0.536821
	0.537152
	0.537484
	0.537815
	0.538146
	0.538477
	0.538808
	0.539138
	0.539469
	0.539800
	0.540130
	0.540461
	0.540791
	0.541121
	0.541451
	0.541782
	0.542112
	0.542442
	0.542771
	0.543101
	0.543431
	0.543760
	0.544090
	0.544419
	0.544749
	0.545078
	0.545407
	0.545736
	0.546065
	0.546394
	0.546723
	0.547052
	0.547381
	0.547709
	0.548038
	0.548366
	0.548695
	0.549023
	0.549351
	0.549679
	0.550007
	0.550335
	0.550663
	0.550991
	0.551318
	0.551646
	0.551973
	0.552301
	0.552628
	0.552955
	0.553283
	0.553610
	0.553937
	0.554263
	0.554590
	0.554917
	0.555244
	0.555570
	0.555897
	0.556223
	0.556549
	0.556876
	0.557202
	0.557528
	0.557854
	0.558180
	0.558505
	0.558831
	0.559157
	0.559482
	0.559808
	0.560133
	0.560458
	0.560784
	0.561109
	0.561434
	0.561759
	0.562083
	0.562408
	0.562733
	0.563057
	0.563382
	0.563706
	0.564031
	0.564355
	0.564679
	0.565003
	0.565327
	0.565651
	0.565975
	0.566298
	0.566622
	0.566946
	0.567269
	0.567592
	0.567916
	0.568239
	0.568562
	0.568885
	0.569208
	0.569531
	0.569853
	0.570176
	0.570499
	0.570821
	0.571143
	0.571466
	0.571788
	0.572110
	0.572432
	0.572754
	0.573076
	0.573398
	0.573719
	0.574041
	0.574363
	0.574684
	0.575005
	0.575326
	0.575648
	0.575969
	0.576290
	0.576611
	0.576931
	0.577252
	0.577573
	0.577893
	0.578214
	0.578534
	0.578854
	0.579174
	0.579495
	0.579815
	0.580134
	0.580454
	0.580774
	0.581094
	0.581413
	0.581733
	0.582052
	0.582371
	0.582690
	0.583010
	0.583329
	0.583648
	0.583966
	0.584285
	0.584604
	0.584922
	0.585241
	0.585559
	0.585877
	0.586196
	0.586514
	0.586832
	0.587150
	0.587468
	0.587785
	0.588103
	0.588420
	0.588738
	0.589055
	0.589373
	0.589690
	0.590007
	0.590324
	0.590641
	0.590958
	0.591274
	0.591591
	0.591908
	0.592224
	0.592541
	0.592857
	0.593173
	0.593489
	0.593805
	0.594121
	0.594437
	0.594753
	0.595068
	0.595384
	0.595699
	0.596015
	0.596330
	0.596645
	0.596960
	0.597275
	0.597590
	0.597905
	0.598220
	0.598534
	0.598849
	0.599163
	0.599478
	0.599792
	0.600106
	0.600420
	0.600734
	0.601048
	0.601362
	0.601676
	0.601989
	0.602303
	0.602616
	0.602930
	0.603243
	0.603556
	0.603869
	0.604182
	0.604495
	0.604808
	0.605120
	0.605433
	0.605745
	0.606058
	0.606370
	0.606682
	0.606994
	0.607307
	0.607618
	0.607930
	0.608242
	0.608554
	0.608865
	0.609177
	0.609488
	0.609799
	0.610111
	0.610422
	0.610733
	0.611044
	0.611354
	0.611665
	0.611976
	0.612286
	0.612597
	0.612907
	0.613217
	0.613527
	0.613838
	0.614147
	0.614457
	0.614767
	0.615077
	0.615386
	0.615696
	0.616005
	0.616315
	0.616624
	0.616933
	0.617242
	0.617551
	0.617860
	0.618168
	0.618477
	0.618786
	0.619094
	0.619402
	0.619711
	0.620019
	0.620327
	0.620635
	0.620943
	0.621250
	0.621558
	0.621866
	0.622173
	0.622480
	0.622788
	0.623095
	0.623402
	0.623709
	0.624016
	0.624323
	0.624630
	0.624936
	0.625243
	0.625549
	0.625855
	0.626162
	0.626468
	0.626774
	0.627080
	0.627386
	0.627691
	0.627997
	0.628303
	0.628608
	0.628913
	0.629219
	0.629524
	0.629829
	0.630134
	0.630439
	0.630744
	0.631048
	0.631353
	0.631657
	0.631962
	0.632266
	0.632570
	0.632874
	0.633178
	0.633482
	0.633786
	0.634090
	0.634393
	0.634697
	0.635000
	0.635304
	0.635607
	0.635910
	0.636213
	0.636516
	0.636819
	0.637121
	0.637424
	0.637727
	0.638029
	0.638331
	0.638634
	0.638936
	0.639238
	0.639540
	0.639841
	0.640143
	0.640445
	0.640746
	0.641048
	0.641349
	0.641650
	0.641952
	0.642253
	0.642554
	0.642854
	0.643155
	0.643456
	0.643756
	0.644057
	0.644357
	0.644657
	0.644958
	0.645258
	0.645558
	0.645858
	0.646157
	0.646457
	0.646757
	0.647056
	0.647355
	0.647655
	0.647954
	0.648253
	0.648552
	0.648851
	0.649149
	0.649448
	0.649747
	0.650045
	0.650343
	0.650642
	0.650940
	0.651238
	0.651536
	0.651834
	0.652131
	0.652429
	0.652727
	0.653024
	0.653322
	0.653619
	0.653916
	0.654213
	0.654510
	0.654807
	0.655104
	0.655400
	0.655697
	0.655993
	0.656290
	0.656586
	0.656882
	0.657178
	0.657474
	0.657770
	0.658065
	0.658361
	0.658657
	0.658952
	0.659247
	0.659543
	0.659838
	0.660133
	0.660428
	0.660723
	0.661017
	0.661312
	0.661606
	0.661901
	0.662195
	0.662489
	0.662783
	0.663077
	0.663371
	0.663665
	0.663959
	0.664252
	0.664546
	0.664839
	0.665133
	0.665426
	0.665719
	0.666012
	0.666305
	0.666598
	0.666890
	0.667183
	0.667475
	0.667768
	0.668060
	0.668352
	0.668644
	0.668936
	0.669228
	0.669520
	0.669811
	0.670103
	0.670394
	0.670686
	0.670977
	0.671268
	0.671559
	0.671850
	0.672141
	0.672431
	0.672722
	0.673013
	0.673303
	0.673593
	0.673883
	0.674173
	0.674463
	0.674753
	0.675043
	0.675333
	0.675622
	0.675912
	0.676201
	0.676490
	0.676780
	0.677069
	0.677358
	0.677646
	0.677935
	0.678224
	0.678512
	0.678801
	0.679089
	0.679377
	0.679665
	0.679953
	0.680241
	0.680529
	0.680817
	0.681104
	0.681392
	0.681679
	0.681966
	0.682254
	0.682541
	0.682828
	0.683114
	0.683401
	0.683688
	0.683974
	0.684261
	0.684547
	0.684833
	0.685119
	0.685405
	0.685691
	0.685977
	0.686263
	0.686548
	0.686834
	0.687119
	0.687404
	0.687690
	0.687975
	0.688260
	0.688544
	0.688829
	0.689114
	0.689398
	0.689683
	0.689967
	0.690251
	0.690535
	0.690819
	0.691103
	0.691387
	0.691671
	0.691954
	0.692238
	0.692521
	0.692804
	0.693087
	0.693370
	0.693653
	0.693936
	0.694219
	0.694501
	0.694784
	0.695066
	0.695349
	0.695631
	0.695913
	0.696195
	0.696477
	0.696758
	0.697040
	0.697321
	0.697603
	0.697884
	0.698165
	0.698447
	0.698727
	0.699008
	0.699289
	0.699570
	0.699850
	0.700131
	0.700411
	0.700691
	0.700972
	0.701252
	0.701531
	0.701811
	0.702091
	0.702370
	0.702650
	0.702929
	0.703209
	0.703488
	0.703767
	0.704046
	0.704325
	0.704603
	0.704882
	0.705160
	0.705439
	0.705717
	0.705995
	0.706273
	0.706551
	0.706829
	0.707107
	0.707384
	0.707662
	0.707939
	0.708217
	0.708494
	0.708771
	0.709048
	0.709325
	0.709601
	0.709878
	0.710155
	0.710431
	0.710707
	0.710984
	0.711260
	0.711536
	0.711812
	0.712087
	0.712363
	0.712639
	0.712914
	0.713189
	0.713464
	0.713740
	0.714015
	0.714289
	0.714564
	0.714839
	0.715113
	0.715388
	0.715662
	0.715936
	0.716211
	0.716485
	0.716758
	0.717032
	0.717306
	0.717580
	0.717853
	0.718126
	0.718400
	0.718673
	0.718946
	0.719219
	0.719491
	0.719764
	0.720037
	0.720309
	0.720581
	0.720854
	0.721126
	0.721398
	0.721670
	0.721941
	0.722213
	0.722485
	0.722756
	0.723027
	0.723299
	0.723570
	0.723841
	0.724112
	0.724382
	0.724653
	0.724924
	0.725194
	0.725464
	0.725735
	0.726005
	0.726275
	0.726545
	0.726814
	0.727084
	0.727354
	0.727623
	0.727892
	0.728162
	0.728431
	0.728700
	0.728969
	0.729237
	0.729506
	0.729775
	0.730043
	0.730311
	0.730580
	0.730848
	0.731116
	0.731383
	0.731651
	0.731919
	0.732186
	0.732454
	0.732721
	0.732988
	0.733255
	0.733522
	0.733789
	0.734056
	0.734323
	0.734589
	0.734855
	0.735122
	0.735388
	0.735654
	0.735920
	0.736186
	0.736451
	0.736717
	0.736982
	0.737248
	0.737513
	0.737778
	0.738043
	0.738308
	0.738573
	0.738838
	0.739102
	0.739367
	0.739631
	0.739895
	0.740159
	0.740423
	0.740687
	0.740951
	0.741215
	0.741478
	0.741742
	0.742005
	0.742268
	0.742531
	0.742794
	0.743057
	0.743320
	0.743583
	0.743845
	0.744108
	0.744370
	0.744632
	0.744894
	0.745156
	0.745418
	0.745680
	0.745941
	0.746203
	0.746464
	0.746725
	0.746986
	0.747247
	0.747508
	0.747769
	0.748030
	0.748290
	0.748551
	0.748811
	0.749071
	0.749331
	0.749591
	0.749851
	0.750111
	0.750371
	0.750630
	0.750890
	0.751149
	0.751408
	0.751667
	0.751926
	0.752185
	0.752444
	0.752702
	0.752961
	0.753219
	0.753477
	0.753735
	0.753993
	0.754251
	0.754509
	0.754767
	0.755024
	0.755282
	0.755539
	0.755796
	0.756053
	0.756310
	0.756567
	0.756824
	0.757081
	0.757337
	0.757593
	0.757850
	0.758106
	0.758362
	0.758618
	0.758874
	0.759129
	0.759385
	0.759640
	0.759896
	0.760151
	0.760406
	0.760661
	0.760916
	0.761171
	0.761425
	0.761680
	0.761934
	0.762188
	0.762443
	0.762697
	0.762950
	0.763204
	0.763458
	0.763712
	0.763965
	0.764218
	0.764472
	0.764725
	0.764978
	0.765230
	0.765483
	0.765736
	0.765988
	0.766241
	0.766493
	0.766745
	0.766997
	0.767249
	0.767501
	0.767753
	0.768004
	0.768256
	0.768507
	0.768758
	0.769009
	0.769260
	0.769511
	0.769762
	0.770012
	0.770263
	0.770513
	0.770763
	0.771014
	0.771264
	0.771514
	0.771763
	0.772013
	0.772263
	0.772512
	0.772761
	0.773010
	0.773260
	0.773508
	0.773757
	0.774006
	0.774255
	0.774503
	0.774751
	0.775000
	0.775248
	0.775496
	0.775744
	0.775991
	0.776239
	0.776487
	0.776734
	0.776981
	0.777228
	0.777475
	0.777722
	0.777969
	0.778216
	0.778462
	0.778709
	0.778955
	0.779201
	0.779447
	0.779693
	0.779939
	0.780185
	0.780430
	0.780676
	0.780921
	0.781166
	0.781412
	0.781657
	0.781901
	0.782146
	0.782391
	0.782635
	0.782880
	0.783124
	0.783368
	0.783612
	0.783856
	0.784100
	0.784343
	0.784587
	0.784830
	0.785074
	0.785317
	0.785560
	0.785803
	0.786046
	0.786288
	0.786531
	0.786773
	0.787016
	0.787258
	0.787500
	0.787742
	0.787984
	0.788226
	0.788467
	0.788709
	0.788950
	0.789191
	0.789432
	0.789673
	0.789914
	0.790155
	0.790396
	0.790636
	0.790877
	0.791117
	0.791357
	0.791597
	0.791837
	0.792077
	0.792316
	0.792556
	0.792795
	0.793034
	0.793274
	0.793513
	0.793752
	0.793990
	0.794229
	0.794468
	0.794706
	0.794944
	0.795183
	0.795421
	0.795659
	0.795896
	0.796134
	0.796372
	0.796609
	0.796846
	0.797084
	0.797321
	0.797558
	0.797794
	0.798031
	0.798268
	0.798504
	0.798741
	0.798977
	0.799213
	0.799449
	0.799685
	0.799920
	0.800156
	0.800391
	0.800627
	0.800862
	0.801097
	0.801332
	0.801567
	0.801802
	0.802036
	0.802271
	0.802505
	0.802739
	0.802974
	0.803208
	0.803441
	0.803675
	0.803909
	0.804142
	0.804376
	0.804609
	0.804842
	0.805075
	0.805308
	0.805541
	0.805773
	0.806006
	0.806238
	0.806470
	0.806703
	0.806935
	0.807166
	0.807398
