python/GafferImageTest/openColorIO/luts/pandemoniumColor1D.spi1d

Version 1
From -0.125 1.125
Length 5000
Components 3
{
	0.000000 0.500000 0.500000
	0.000393 0.500393 0.500589
	0.000785 0.500785 0.501178
	0.001178 0.501178 0.501767
	0.001571 0.501571 0.502356
	0.001963 0.501963 0.502945
	0.002356 0.502356 0.503534
	0.002749 0.502749 0.504123
	0.003142 0.503142 0.504712
	0.003534 0.503534 0.505301
	0.003927 0.503927 0.505890
	0.004320 0.504320 0.506479
	0.004712 0.504712 0.507068
	0.005105 0.505105 0.507657
	0.005498 0.505498 0.508246
	0.005890 0.505890 0.508835
	0.006283 0.506283 0.509424
	0.006676 0.506676 0.510013
	0.007069 0.507068 0.510602
	0.007461 0.507461 0.511191
	0.007854 0.507854 0.511780
	0.008247 0.508246 0.512369
	0.008639 0.508639 0.512958
	0.009032 0.509032 0.513546
	0.009425 0.509424 0.514135
	0.009817 0.509817 0.514724
	0.010210 0.510209 0.515313
	0.010603 0.510602 0.515902
	0.010995 0.510995 0.516490
	0.011388 0.511387 0.517079
	0.011781 0.511780 0.517668
	0.012173 0.512172 0.518256
	0.012566 0.512565 0.518845
	0.012959 0.512958 0.519434
	0.013351 0.513350 0.520022
	0.013744 0.513743 0.520611
	0.014137 0.514135 0.521199
	0.014529 0.514528 0.521788
	0.014922 0.514920 0.522376
	0.015315 0.515313 0.522965
	0.015707 0.515705 0.523553
	0.016100 0.516098 0.524142
	0.016493 0.516490 0.524730
	0.016885 0.516883 0.525318
	0.017278 0.517275 0.525907
	0.017671 0.517668 0.526495
	0.018063 0.518060 0.527083
	0.018456 0.518453 0.527671
	0.018848 0.518845 0.528259
	0.019241 0.519238 0.528847
	0.019634 0.519630 0.529435
	0.020026 0.520022 0.530023
	0.020419 0.520415 0.530611
	0.020812 0.520807 0.531199
	0.021204 0.521199 0.531787
	0.021597 0.521592 0.532375
	0.021989 0.521984 0.532963
	0.022382 0.522376 0.533551
	0.022775 0.522769 0.534138
	0.023167 0.523161 0.534726
	0.023560 0.523553 0.535313
	0.023952 0.523945 0.535901
	0.024345 0.524338 0.536489
	0.024738 0.524730 0.537076
	0.025130 0.525122 0.537663
	0.025523 0.525514 0.538251
	0.025915 0.525907 0.538838
	0.026308 0.526299 0.539425
	0.026700 0.526691 0.540012
	0.027093 0.527083 0.540600
	0.027485 0.527475 0.541187
	0.027878 0.527867 0.541774
	0.028271 0.528259 0.542361
	0.028663 0.528651 0.542948
	0.029056 0.529043 0.543534
	0.029448 0.529435 0.544121
	0.029841 0.529827 0.544708
	0.030233 0.530219 0.545295
	0.030626 0.530611 0.545881
	0.031018 0.531003 0.546468
	0.031411 0.531395 0.547054
	0.031803 0.531787 0.547641
	0.032196 0.532179 0.548227
	0.032588 0.532571 0.548813
	0.032981 0.532963 0.549399
	0.033373 0.533355 0.549985
	0.033766 0.533746 0.550572
	0.034158 0.534138 0.551158
	0.034551 0.534530 0.551743
	0.034943 0.534922 0.552329
	0.035336 0.535313 0.552915
	0.035728 0.535705 0.553501
	0.036120 0.536097 0.554086
	0.036513 0.536489 0.554672
	0.036905 0.536880 0.555257
	0.037298 0.537272 0.555843
	0.037690 0.537663 0.556428
	0.038083 0.538055 0.557013
	0.038475 0.538447 0.557599
	0.038867 0.538838 0.558184
	0.039260 0.539230 0.558769
	0.039652 0.539621 0.559354
	0.040045 0.540012 0.559938
	0.040437 0.540404 0.560523
	0.040829 0.540795 0.561108
	0.041222 0.541187 0.561692
	0.041614 0.541578 0.562277
	0.042006 0.541969 0.562861
	0.042399 0.542361 0.563446
	0.042791 0.542752 0.564030
	0.043183 0.543143 0.564614
	0.043576 0.543534 0.565198
	0.043968 0.543926 0.565782
	0.044360 0.544317 0.566366
	0.044753 0.544708 0.566950
	0.045145 0.545099 0.567534
	0.045537 0.545490 0.568117
	0.045930 0.545881 0.568701
	0.046322 0.546272 0.569284
	0.046714 0.546663 0.569867
	0.047106 0.547054 0.570451
	0.047499 0.547445 0.571034
	0.047891 0.547836 0.571617
	0.048283 0.548227 0.572200
	0.048675 0.548618 0.572783
	0.049068 0.549009 0.573365
	0.049460 0.549399 0.573948
	0.049852 0.549790 0.574530
	0.050244 0.550181 0.575113
	0.050637 0.550572 0.575695
	0.051029 0.550962 0.576277
	0.051421 0.551353 0.576859
	0.051813 0.551743 0.577441
	0.052205 0.552134 0.578023
	0.052597 0.552525 0.578605
	0.052990 0.552915 0.579187
	0.053382 0.553306 0.579768
	0.053774 0.553696 0.580350
	0.054166 0.554086 0.580931
	0.054558 0.554477 0.581512
	0.054950 0.554867 0.582093
	0.055342 0.555257 0.582674
	0.055734 0.555648 0.583255
	0.056126 0.556038 0.583836
	0.056519 0.556428 0.584417
	0.056911 0.556818 0.584997
	0.057303 0.557209 0.585578
	0.057695 0.557599 0.586158
	0.058087 0.557989 0.586738
	0.058479 0.558379 0.587318
	0.058871 0.558769 0.587898
	0.059263 0.559159 0.588478
	0.059655 0.559549 0.589058
	0.060047 0.559938 0.589637
	0.060439 0.560328 0.590217
	0.060831 0.560718 0.590796
	0.061223 0.561108 0.591375
	0.061615 0.561498 0.591954
	0.062007 0.561887 0.592533
	0.062399 0.562277 0.593112
	0.062791 0.562667 0.593691
	0.063182 0.563056 0.594269
	0.063574 0.563446 0.594848
	0.063966 0.563835 0.595426
	0.064358 0.564225 0.596004
	0.064750 0.564614 0.596582
	0.065142 0.565004 0.597160
	0.065534 0.565393 0.597738
	0.065926 0.565782 0.598315
	0.066317 0.566171 0.598893
	0.066709 0.566561 0.599470
	0.067101 0.566950 0.600047
	0.067493 0.567339 0.600624
	0.067885 0.567728 0.601201
	0.068276 0.568117 0.601778
	0.068668 0.568506 0.602355
	0.069060 0.568895 0.602931
	0.069452 0.569284 0.603508
	0.069844 0.569673 0.604084
	0.070235 0.570062 0.604660
	0.070627 0.570451 0.605236
	0.071019 0.570839 0.605812
	0.071410 0.571228 0.606387
	0.071802 0.571617 0.606963
	0.072194 0.572005 0.607538
	0.072585 0.572394 0.608113
	0.072977 0.572783 0.608688
	0.073369 0.573171 0.609263
	0.073760 0.573559 0.609838
	0.074152 0.573948 0.610413
	0.074544 0.574336 0.610987
	0.074935 0.574725 0.611561
	0.075327 0.575113 0.612135
	0.075718 0.575501 0.612709
	0.076110 0.575889 0.613283
	0.076502 0.576277 0.613857
	0.076893 0.576665 0.614430
	0.077285 0.577053 0.615004
	0.077676 0.577441 0.615577
	0.078068 0.577829 0.616150
	0.078459 0.578217 0.616723
	0.078851 0.578605 0.617295
	0.079242 0.578993 0.617868
	0.079634 0.579381 0.618440
	0.080025 0.579768 0.619012
	0.080416 0.580156 0.619585
	0.080808 0.580544 0.620156
	0.081199 0.580931 0.620728
	0.081591 0.581319 0.621300
	0.081982 0.581706 0.621871
	0.082373 0.582093 0.622442
	0.082765 0.582481 0.623013
	0.083156 0.582868 0.623584
	0.083547 0.583255 0.624155
	0.083939 0.583642 0.624725
	0.084330 0.584030 0.625296
	0.084721 0.584417 0.625866
	0.085113 0.584804 0.626436
	0.085504 0.585191 0.627006
	0.085895 0.585578 0.627575
	0.086286 0.585965 0.628145
	0.086678 0.586351 0.628714
	0.087069 0.586738 0.629283
	0.087460 0.587125 0.629852
	0.087851 0.587512 0.630421
	0.088242 0.587898 0.630989
	0.088634 0.588285 0.631558
	0.089025 0.588671 0.632126
	0.089416 0.589058 0.632694
	0.089807 0.589444 0.633262
	0.090198 0.589830 0.633829
	0.090589 0.590217 0.634397
	0.090980 0.590603 0.634964
	0.091371 0.590989 0.635531
	0.091762 0.591375 0.636098
	0.092153 0.591761 0.636665
	0.092544 0.592147 0.637231
	0.092935 0.592533 0.637798
	0.093326 0.592919 0.638364
	0.093717 0.593305 0.638930
	0.094108 0.593691 0.639496
	0.094499 0.594076 0.640061
	0.094890 0.594462 0.640626
	0.095281 0.594848 0.641192
	0.095672 0.595233 0.641757
	0.096063 0.595619 0.642321
	0.096454 0.596004 0.642886
	0.096845 0.596389 0.643450
	0.097235 0.596775 0.644015
	0.097626 0.597160 0.644579
	0.098017 0.597545 0.645142
	0.098408 0.597930 0.645706
	0.098799 0.598315 0.646269
	0.099189 0.598700 0.646832
	0.099580 0.599085 0.647395
	0.099971 0.599470 0.647958
	0.100362 0.599855 0.648521
	0.100752 0.600240 0.649083
	0.101143 0.600624 0.649645
	0.101534 0.601009 0.650207
	0.101924 0.601394 0.650769
	0.102315 0.601778 0.651331
	0.102706 0.602163 0.651892
	0.103096 0.602547 0.652453
	0.103487 0.602931 0.653014
	0.103878 0.603316 0.653575
	0.104268 0.603700 0.654135
	0.104659 0.604084 0.654695
	0.105049 0.604468 0.655255
	0.105440 0.604852 0.655815
	0.105830 0.605236 0.656375
	0.106221 0.605620 0.656934
	0.106611 0.606004 0.657493
	0.107002 0.606387 0.658052
	0.107392 0.606771 0.658611
	0.107782 0.607155 0.659169
	0.108173 0.607538 0.659728
	0.108563 0.607922 0.660286
	0.108954 0.608305 0.660844
	0.109344 0.608688 0.661401
	0.109734 0.609072 0.661959
	0.110125 0.609455 0.662516
	0.110515 0.609838 0.663073
	0.110905 0.610221 0.663630
	0.111295 0.610604 0.664186
	0.111686 0.610987 0.664742
	0.112076 0.611370 0.665298
	0.112466 0.611753 0.665854
	0.112856 0.612135 0.666410
	0.113247 0.612518 0.666965
	0.113637 0.612901 0.667520
	0.114027 0.613283 0.668075
	0.114417 0.613666 0.668630
	0.114807 0.614048 0.669184
	0.115197 0.614430 0.669738
	0.115587 0.614813 0.670292
	0.115977 0.615195 0.670846
	0.116367 0.615577 0.671400
	0.116757 0.615959 0.671953
	0.117147 0.616341 0.672506
	0.117537 0.616723 0.673059
	0.117927 0.617104 0.673611
	0.118317 0.617486 0.674163
	0.118707 0.617868 0.674715
	0.119097 0.618249 0.675267
	0.119487 0.618631 0.675819
	0.119877 0.619012 0.676370
	0.120267 0.619394 0.676921
	0.120657 0.619775 0.677472
	0.121046 0.620156 0.678022
	0.121436 0.620538 0.678573
	0.121826 0.620919 0.679123
	0.122216 0.621300 0.679673
	0.122606 0.621681 0.680222
	0.122995 0.622061 0.680772
	0.123385 0.622442 0.681321
	0.123775 0.622823 0.681870
	0.124164 0.623204 0.682418
	0.124554 0.623584 0.682966
	0.124944 0.623965 0.683514
	0.125333 0.624345 0.684062
	0.125723 0.624725 0.684610
	0.126112 0.625106 0.685157
	0.126502 0.625486 0.685704
	0.126891 0.625866 0.686251
	0.127281 0.626246 0.686797
	0.127670 0.626626 0.687344
	0.128060 0.627006 0.687890
	0.128449 0.627385 0.688436
	0.128839 0.627765 0.688981
	0.129228 0.628145 0.689526
	0.129618 0.628524 0.690071
	0.130007 0.628904 0.690616
	0.130396 0.629283 0.691160
	0.130786 0.629662 0.691704
	0.131175 0.630042 0.692248
	0.131564 0.630421 0.692792
	0.131954 0.630800 0.693335
	0.132343 0.631179 0.693878
	0.132732 0.631558 0.694421
	0.133121 0.631937 0.694964
	0.133511 0.632315 0.695506
	0.133900 0.632694 0.696048
	0.134289 0.633073 0.696590
	0.134678 0.633451 0.697131
	0.135067 0.633829 0.697673
	0.135456 0.634208 0.698213
	0.135845 0.634586 0.698754
	0.136234 0.634964 0.699295
	0.136623 0.635342 0.699835
	0.137012 0.635720 0.700374
	0.137401 0.636098 0.700914
	0.137790 0.636476 0.701453
	0.138179 0.636854 0.701992
	0.138568 0.637231 0.702531
	0.138957 0.637609 0.703069
	0.139346 0.637986 0.703607
	0.139735 0.638364 0.704145
	0.140124 0.638741 0.704683
	0.140512 0.639118 0.705220
	0.140901 0.639496 0.705757
	0.141290 0.639873 0.706294
	0.141679 0.640250 0.706830
	0.142067 0.640626 0.707366
	0.142456 0.641003 0.707902
	0.142845 0.641380 0.708438
	0.143234 0.641757 0.708973
	0.143622 0.642133 0.709508
	0.144011 0.642510 0.710043
	0.144399 0.642886 0.710577
	0.144788 0.643262 0.711111
	0.145176 0.643638 0.711645
	0.145565 0.644015 0.712179
	0.145954 0.644391 0.712712
	0.146342 0.644767 0.713245
	0.146730 0.645142 0.713778
	0.147119 0.645518 0.714310
	0.147507 0.645894 0.714842
	0.147896 0.646269 0.715374
	0.148284 0.646645 0.715905
	0.148672 0.647020 0.716436
	0.149061 0.647395 0.716967
	0.149449 0.647771 0.717498
	0.149837 0.648146 0.718028
	0.150226 0.648521 0.718558
	0.150614 0.648896 0.719088
	0.151002 0.649271 0.719617
	0.151390 0.649645 0.720146
	0.151778 0.650020 0.720675
	0.152167 0.650395 0.721203
	0.152555 0.650769 0.721731
	0.152943 0.651143 0.722259
	0.153331 0.651518 0.722786
	0.153719 0.651892 0.723314
	0.154107 0.652266 0.723841
	0.154495 0.652640 0.724367
	0.154883 0.653014 0.724893
	0.155271 0.653388 0.725419
	0.155659 0.653761 0.725945
	0.156047 0.654135 0.726470
	0.156434 0.654508 0.726995
	0.156822 0.654882 0.727520
	0.157210 0.655255 0.728044
	0.157598 0.655629 0.728568
	0.157986 0.656002 0.729092
	0.158373 0.656375 0.729616
	0.158761 0.656748 0.730139
	0.159149 0.657121 0.730661
	0.159537 0.657493 0.731184
	0.159924 0.657866 0.731706
	0.160312 0.658238 0.732228
	0.160699 0.658611 0.732749
	0.161087 0.658983 0.733271
	0.161475 0.659356 0.733791
	0.161862 0.659728 0.734312
	0.162250 0.660100 0.734832
	0.162637 0.660472 0.735352
	0.163025 0.660844 0.735872
	0.163412 0.661215 0.736391
	0.163799 0.661587 0.736910
	0.164187 0.661959 0.737428
	0.164574 0.662330 0.737946
	0.164962 0.662702 0.738464
	0.165349 0.663073 0.738982
	0.165736 0.663444 0.739499
	0.166123 0.663815 0.740016
	0.166511 0.664186 0.740533
	0.166898 0.664557 0.741049
	0.167285 0.664928 0.741565
	0.167672 0.665298 0.742080
	0.168059 0.665669 0.742596
	0.168446 0.666039 0.743110
	0.168833 0.666410 0.743625
	0.169220 0.666780 0.744139
	0.169608 0.667150 0.744653
	0.169995 0.667520 0.745167
	0.170381 0.667890 0.745680
	0.170768 0.668260 0.746193
	0.171155 0.668630 0.746705
	0.171542 0.668999 0.747217
	0.171929 0.669369 0.747729
	0.172316 0.669738 0.748241
	0.172703 0.670108 0.748752
	0.173090 0.670477 0.749263
	0.173476 0.670846 0.749773
	0.173863 0.671215 0.750283
	0.174250 0.671584 0.750793
	0.174636 0.671953 0.751303
	0.175023 0.672321 0.751812
	0.175410 0.672690 0.752320
	0.175796 0.673059 0.752829
	0.176183 0.673427 0.753337
	0.176569 0.673795 0.753844
	0.176956 0.674163 0.754352
	0.177342 0.674531 0.754859
	0.177729 0.674899 0.755365
	0.178115 0.675267 0.755872
	0.178502 0.675635 0.756377
	0.178888 0.676003 0.756883
	0.179274 0.676370 0.757388
	0.179661 0.676737 0.757893
	0.180047 0.677105 0.758397
	0.180433 0.677472 0.758902
	0.180820 0.677839 0.759405
	0.181206 0.678206 0.759909
	0.181592 0.678573 0.760412
	0.181978 0.678940 0.760914
	0.182364 0.679306 0.761417
	0.182750 0.679673 0.761919
	0.183136 0.680039 0.762420
	0.183522 0.680405 0.762921
	0.183908 0.680772 0.763422
	0.184294 0.681138 0.763923
	0.184680 0.681504 0.764423
	0.185066 0.681870 0.764923
	0.185452 0.682235 0.765422
	0.185838 0.682601 0.765921
	0.186224 0.682966 0.766420
	0.186610 0.683332 0.766918
	0.186996 0.683697 0.767416
	0.187381 0.684062 0.767913
	0.187767 0.684427 0.768411
	0.188153 0.684792 0.768907
	0.188538 0.685157 0.769404
	0.188924 0.685522 0.769900
	0.189310 0.685886 0.770395
	0.189695 0.686251 0.770891
	0.190081 0.686615 0.771386
	0.190466 0.686980 0.771880
	0.190852 0.687344 0.772374
	0.191237 0.687708 0.772868
	0.191623 0.688072 0.773362
	0.192008 0.688436 0.773855
	0.192394 0.688799 0.774347
	0.192779 0.689163 0.774840
	0.193164 0.689526 0.775331
	0.193549 0.689890 0.775823
	0.193935 0.690253 0.776314
	0.194320 0.690616 0.776805
	0.194705 0.690979 0.777295
	0.195090 0.691342 0.777785
	0.195475 0.691704 0.778275
	0.195861 0.692067 0.778764
	0.196246 0.692430 0.779253
	0.196631 0.692792 0.779741
	0.197016 0.693154 0.780229
	0.197401 0.693516 0.780717
	0.197786 0.693878 0.781204
	0.198171 0.694240 0.781691
	0.198555 0.694602 0.782177
	0.198940 0.694964 0.782663
	0.199325 0.695325 0.783149
	0.199710 0.695687 0.783634
	0.200095 0.696048 0.784119
	0.200479 0.696409 0.784604
	0.200864 0.696770 0.785088
	0.201249 0.697131 0.785572
	0.201634 0.697492 0.786055
	0.202018 0.697853 0.786538
	0.202403 0.698213 0.787020
	0.202787 0.698574 0.787503
	0.203172 0.698934 0.787984
	0.203556 0.699295 0.788466
	0.203941 0.699655 0.788947
	0.204325 0.700015 0.789427
	0.204710 0.700374 0.789907
	0.205094 0.700734 0.790387
	0.205478 0.701094 0.790866
	0.205863 0.701453 0.791345
	0.206247 0.701813 0.791824
	0.206631 0.702172 0.792302
	0.207015 0.702531 0.792780
	0.207400 0.702890 0.793257
	0.207784 0.703249 0.793734
	0.208168 0.703607 0.794210
	0.208552 0.703966 0.794686
	0.208936 0.704325 0.795162
	0.209320 0.704683 0.795637
	0.209704 0.705041 0.796112
	0.210088 0.705399 0.796587
	0.210472 0.705757 0.797061
	0.210856 0.706115 0.797534
	0.211240 0.706473 0.798007
	0.211623 0.706830 0.798480
	0.212007 0.707188 0.798952
	0.212391 0.707545 0.799424
	0.212775 0.707902 0.799896
	0.213158 0.708259 0.800367
	0.213542 0.708616 0.800838
	0.213926 0.708973 0.801308
	0.214309 0.709330 0.801778
	0.214693 0.709686 0.802247
	0.215076 0.710043 0.802716
	0.215460 0.710399 0.803185
	0.215843 0.710755 0.803653
	0.216227 0.711111 0.804121
	0.216610 0.711467 0.804588
	0.216993 0.711823 0.805055
	0.217377 0.712179 0.805522
	0.217760 0.712534 0.805988
	0.218143 0.712890 0.806454
	0.218526 0.713245 0.806919
	0.218910 0.713600 0.807384
	0.219293 0.713955 0.807848
	0.219676 0.714310 0.808312
	0.220059 0.714665 0.808775
	0.220442 0.715019 0.809238
	0.220825 0.715374 0.809701
	0.221208 0.715728 0.810163
	0.221591 0.716082 0.810625
	0.221974 0.716436 0.811087
	0.222357 0.716790 0.811547
	0.222740 0.717144 0.812008
	0.223123 0.717498 0.812468
	0.223505 0.717851 0.812928
	0.223888 0.718205 0.813387
	0.224271 0.718558 0.813846
	0.224653 0.718911 0.814304
	0.225036 0.719264 0.814762
	0.225419 0.719617 0.815219
	0.225801 0.719970 0.815676
	0.226184 0.720322 0.816133
	0.226566 0.720675 0.816589
	0.226949 0.721027 0.817045
	0.227331 0.721379 0.817500
	0.227714 0.721731 0.817955
	0.228096 0.722083 0.818409
	0.228478 0.722435 0.818863
	0.228861 0.722786 0.819317
	0.229243 0.723138 0.819770
	0.229625 0.723489 0.820222
	0.230007 0.723841 0.820675
	0.230389 0.724192 0.821126
	0.230772 0.724543 0.821578
	0.231154 0.724893 0.822028
	0.231536 0.725244 0.822479
	0.231918 0.725595 0.822929
	0.232300 0.725945 0.823378
	0.232682 0.726295 0.823827
	0.233063 0.726645 0.824276
	0.233445 0.726995 0.824724
	0.233827 0.727345 0.825172
	0.234209 0.727695 0.825619
	0.234591 0.728044 0.826066
	0.234972 0.728394 0.826512
	0.235354 0.728743 0.826958
	0.235736 0.729092 0.827403
	0.236117 0.729441 0.827848
	0.236499 0.729790 0.828293
	0.236881 0.730139 0.828737
	0.237262 0.730487 0.829181
	0.237644 0.730836 0.829624
	0.238025 0.731184 0.830066
	0.238406 0.731532 0.830509
	0.238788 0.731880 0.830950
	0.239169 0.732228 0.831392
	0.239550 0.732576 0.831833
	0.239932 0.732923 0.832273
	0.240313 0.733271 0.832713
	0.240694 0.733618 0.833152
	0.241075 0.733965 0.833591
	0.241456 0.734312 0.834030
	0.241837 0.734659 0.834468
	0.242218 0.735005 0.834906
	0.242599 0.735352 0.835343
	0.242980 0.735698 0.835779
	0.243361 0.736045 0.836216
	0.243742 0.736391 0.836651
	0.244123 0.736737 0.837087
	0.244504 0.737083 0.837522
	0.244884 0.737428 0.837956
	0.245265 0.737774 0.838390
	0.245646 0.738119 0.838823
	0.246026 0.738464 0.839256
	0.246407 0.738809 0.839689
	0.246788 0.739154 0.840121
	0.247168 0.739499 0.840552
	0.247549 0.739844 0.840983
	0.247929 0.740188 0.841414
	0.248310 0.740533 0.841844
	0.248690 0.740877 0.842274
	0.249070 0.741221 0.842703
	0.249451 0.741565 0.843131
	0.249831 0.741909 0.843560
	0.250211 0.742252 0.843987
	0.250591 0.742596 0.844415
	0.250971 0.742939 0.844841
	0.251351 0.743282 0.845268
	0.251732 0.743625 0.845693
	0.252112 0.743968 0.846119
	0.252492 0.744311 0.846544
	0.252872 0.744653 0.846968
	0.253251 0.744996 0.847392
	0.253631 0.745338 0.847815
	0.254011 0.745680 0.848238
	0.254391 0.746022 0.848661
	0.254771 0.746364 0.849083
	0.255150 0.746705 0.849504
	0.255530 0.747047 0.849925
	0.255910 0.747388 0.850346
	0.256289 0.747729 0.850766
	0.256669 0.748070 0.851185
	0.257048 0.748411 0.851604
	0.257428 0.748752 0.852023
	0.257807 0.749093 0.852441
	0.258187 0.749433 0.852859
	0.258566 0.749773 0.853276
	0.258945 0.750113 0.853692
	0.259325 0.750453 0.854108
	0.259704 0.750793 0.854524
	0.260083 0.751133 0.854939
	0.260462 0.751472 0.855354
	0.260842 0.751812 0.855768
	0.261221 0.752151 0.856181
	0.261600 0.752490 0.856595
	0.261979 0.752829 0.857007
	0.262358 0.753167 0.857419
	0.262737 0.753506 0.857831
	0.263115 0.753844 0.858242
	0.263494 0.754183 0.858653
	0.263873 0.754521 0.859063
	0.264252 0.754859 0.859473
	0.264631 0.755196 0.859882
	0.265009 0.755534 0.860291
	0.265388 0.755872 0.860699
	0.265766 0.756209 0.861107
	0.266145 0.756546 0.861514
	0.266524 0.756883 0.861920
	0.266902 0.757220 0.862327
	0.267280 0.757556 0.862732
	0.267659 0.757893 0.863137
	0.268037 0.758229 0.863542
	0.268415 0.758565 0.863946
	0.268794 0.758902 0.864350
	0.269172 0.759237 0.864753
	0.269550 0.759573 0.865156
	0.269928 0.759909 0.865558
	0.270306 0.760244 0.865959
	0.270684 0.760579 0.866361
	0.271062 0.760914 0.866761
	0.271440 0.761249 0.867161
	0.271818 0.761584 0.867561
	0.272196 0.761919 0.867960
	0.272574 0.762253 0.868358
	0.272952 0.762587 0.868757
	0.273330 0.762921 0.869154
	0.273707 0.763255 0.869551
	0.274085 0.763589 0.869948
	0.274463 0.763923 0.870344
	0.274840 0.764256 0.870739
	0.275218 0.764590 0.871134
	0.275595 0.764923 0.871529
	0.275973 0.765256 0.871923
	0.276350 0.765588 0.872316
	0.276728 0.765921 0.872709
	0.277105 0.766254 0.873101
	0.277482 0.766586 0.873493
	0.277860 0.766918 0.873885
	0.278237 0.767250 0.874275
	0.278614 0.767582 0.874666
	0.278991 0.767913 0.875056
	0.279368 0.768245 0.875445
	0.279745 0.768576 0.875834
	0.280122 0.768907 0.876222
	0.280499 0.769238 0.876610
	0.280876 0.769569 0.876997
	0.281253 0.769900 0.877383
	0.281630 0.770230 0.877770
	0.282007 0.770561 0.878155
	0.282383 0.770891 0.878540
	0.282760 0.771221 0.878925
	0.283137 0.771551 0.879309
	0.283513 0.771880 0.879692
	0.283890 0.772210 0.880075
	0.284266 0.772539 0.880458
	0.284643 0.772868 0.880840
	0.285019 0.773197 0.881221
	0.285396 0.773526 0.881602
	0.285772 0.773855 0.881982
	0.286148 0.774183 0.882362
	0.286525 0.774511 0.882742
	0.286901 0.774840 0.883120
	0.287277 0.775168 0.883499
	0.287653 0.775495 0.883876
	0.288029 0.775823 0.884253
	0.288405 0.776150 0.884630
	0.288781 0.776478 0.885006
	0.289157 0.776805 0.885382
	0.289533 0.777132 0.885757
	0.289909 0.777459 0.886131
	0.290285 0.777785 0.886505
	0.290660 0.778112 0.886879
	0.291036 0.778438 0.887252
	0.291412 0.778764 0.887624
	0.291787 0.779090 0.887996
	0.292163 0.779416 0.888367
	0.292539 0.779741 0.888738
	0.292914 0.780067 0.889108
	0.293290 0.780392 0.889478
	0.293665 0.780717 0.889847
	0.294040 0.781042 0.890215
	0.294416 0.781366 0.890583
	0.294791 0.781691 0.890951
	0.295166 0.782015 0.891318
	0.295541 0.782339 0.891684
	0.295916 0.782663 0.892050
	0.296292 0.782987 0.892415
	0.296667 0.783311 0.892780
	0.297042 0.783634 0.893144
	0.297417 0.783958 0.893508
	0.297791 0.784281 0.893871
	0.298166 0.784604 0.894234
	0.298541 0.784927 0.894596
	0.298916 0.785249 0.894957
	0.299291 0.785572 0.895318
	0.299665 0.785894 0.895678
	0.300040 0.786216 0.896038
	0.300414 0.786538 0.896398
	0.300789 0.786860 0.896756
	0.301164 0.787181 0.897115
	0.301538 0.787503 0.897472
	0.301912 0.787824 0.897829
	0.302287 0.788145 0.898186
	0.302661 0.788466 0.898542
	0.303035 0.788786 0.898897
	0.303409 0.789107 0.899252
	0.303784 0.789427 0.899606
	0.304158 0.789747 0.899960
	0.304532 0.790067 0.900313
	0.304906 0.790387 0.900666
	0.305280 0.790707 0.901018
	0.305654 0.791026 0.901370
	0.306028 0.791345 0.901721
	0.306401 0.791664 0.902071
	0.306775 0.791983 0.902421
	0.307149 0.792302 0.902770
	0.307523 0.792620 0.903119
	0.307896 0.792939 0.903467
	0.308270 0.793257 0.903815
	0.308643 0.793575 0.904162
	0.309017 0.793893 0.904508
	0.309390 0.794210 0.904854
	0.309764 0.794528 0.905200
	0.310137 0.794845 0.905545
	0.310511 0.795162 0.905889
	0.310884 0.795479 0.906233
	0.311257 0.795796 0.906576
	0.311630 0.796112 0.906918
	0.312003 0.796428 0.907260
	0.312376 0.796745 0.907602
	0.312749 0.797061 0.907943
	0.313122 0.797376 0.908283
	0.313495 0.797692 0.908623
	0.313868 0.798007 0.908962
	0.314241 0.798323 0.909301
	0.314614 0.798638 0.909639
	0.314987 0.798952 0.909976
	0.315359 0.799267 0.910313
	0.315732 0.799582 0.910649
	0.316104 0.799896 0.910985
	0.316477 0.800210 0.911320
	0.316849 0.800524 0.911655
	0.317222 0.800838 0.911989
	0.317594 0.801151 0.912322
	0.317967 0.801465 0.912655
	0.318339 0.801778 0.912988
	0.318711 0.802091 0.913319
	0.319083 0.802404 0.913651
	0.319456 0.802716 0.913981
	0.319828 0.803029 0.914311
	0.320200 0.803341 0.914641
	0.320572 0.803653 0.914970
	0.320944 0.803965 0.915298
	0.321316 0.804277 0.915626
	0.321687 0.804588 0.915953
	0.322059 0.804900 0.916279
	0.322431 0.805211 0.916605
	0.322803 0.805522 0.916931
	0.323174 0.805833 0.917256
	0.323546 0.806143 0.917580
	0.323917 0.806454 0.917904
	0.324289 0.806764 0.918227
	0.324660 0.807074 0.918549
	0.325032 0.807384 0.918871
	0.325403 0.807693 0.919193
	0.325774 0.808003 0.919513
	0.326146 0.808312 0.919834
	0.326517 0.808621 0.920153
	0.326888 0.808930 0.920472
	0.327259 0.809238 0.920791
	0.327630 0.809547 0.921109
	0.328001 0.809855 0.921426
	0.328372 0.810163 0.921743
	0.328743 0.810471 0.922059
	0.329114 0.810779 0.922374
