python/GafferImageTest/openColorIO/luts/pandemoniumSmall1D.spi1d

Version 1
From -0.125 1.125
Length 100
Components 1
{
	0.639427
	0.025011
	0.275029
	0.223211
	0.736471
	0.676699
	0.892180
	0.086939
	0.421922
	0.029797
	0.218638
	0.505355
	0.026536
	0.198838
	0.649884
	0.544941
	0.220441
	0.589266
	0.809430
	0.006499
	0.805819
	0.698139
	0.340251
	0.155479
	0.957213
	0.336595
	0.092746
	0.096716
	0.847494
	0.603726
	0.807128
	0.729732
	0.536228
	0.973116
	0.378534
	0.552041
	0.829405
	0.618520
	0.861707
	0.577352
	0.704572
	0.045824
	0.227898
	0.289388
	0.079792
	0.232791
	0.101001
	0.277974
	0.635684
	0.364832
	0.370181
	0.209507
	0.266978
	0.936655
	0.648035
	0.609131
	0.171139
	0.729127
	0.163402
	0.379455
	0.989523
	0.640000
	0.556950
	0.684614
	0.842852
	0.776000
	0.229048
	0.032100
	0.315453
	0.267741
	0.210983
	0.942910
	0.876368
	0.314678
	0.655439
	0.395632
	0.914548
	0.458852
	0.264880
	0.246628
	0.561368
	0.262742
	0.584586
	0.897823
	0.399401
	0.219321
	0.997538
	0.509526
	0.090909
	0.047116
	0.109649
	0.627446
	0.792079
	0.422160
	0.063528
	0.381619
	0.996121
	0.529114
	0.971078
	0.860780
}