python/GafferImageTest/openColorIO/luts/rec709.spi1d
Version 1
From -0.125 1.125
Length 4101
Components 1
{
	-0.0277777777778
	-0.0277100271003
	-0.0276422764228
	-0.0275745257453
	-0.0275067750678
	-0.0274390243902
	-0.0273712737127
	-0.0273035230352
	-0.0272357723577
	-0.0271680216802
	-0.0271002710027
	-0.0270325203252
	-0.0269647696477
	-0.0268970189702
	-0.0268292682927
	-0.0267615176152
	-0.0266937669377
	-0.0266260162602
	-0.0265582655827
	-0.0264905149051
	-0.0264227642276
	-0.0263550135501
	-0.0262872628726
	-0.0262195121951
	-0.0261517615176
	-0.0260840108401
	-0.0260162601626
	-0.0259485094851
	-0.0258807588076
	-0.0258130081301
	-0.0257452574526
	-0.0256775067751
	-0.0256097560976
	-0.0255420054201
	-0.0254742547425
	-0.025406504065
	-0.0253387533875
	-0.02527100271
	-0.0252032520325
	-0.025135501355
	-0.0250677506775
	-0.025
	-0.0249322493225
	-0.024864498645
	-0.0247967479675
	-0.02472899729
	-0.0246612466125
	-0.024593495935
	-0.0245257452575
	-0.0244579945799
	-0.0243902439024
	-0.0243224932249
	-0.0242547425474
	-0.0241869918699
	-0.0241192411924
	-0.0240514905149
	-0.0239837398374
	-0.0239159891599
	-0.0238482384824
	-0.0237804878049
	-0.0237127371274
	-0.0236449864499
	-0.0235772357724
	-0.0235094850949
	-0.0234417344173
	-0.0233739837398
	-0.0233062330623
	-0.0232384823848
	-0.0231707317073
	-0.0231029810298
	-0.0230352303523
	-0.0229674796748
	-0.0228997289973
	-0.0228319783198
	-0.0227642276423
	-0.0226964769648
	-0.0226287262873
	-0.0225609756098
	-0.0224932249322
	-0.0224254742547
	-0.0223577235772
	-0.0222899728997
	-0.0222222222222
	-0.0221544715447
	-0.0220867208672
	-0.0220189701897
	-0.0219512195122
	-0.0218834688347
	-0.0218157181572
	-0.0217479674797
	-0.0216802168022
	-0.0216124661247
	-0.0215447154472
	-0.0214769647696
	-0.0214092140921
	-0.0213414634146
	-0.0212737127371
	-0.0212059620596
	-0.0211382113821
	-0.0210704607046
	-0.0210027100271
	-0.0209349593496
	-0.0208672086721
	-0.0207994579946
	-0.0207317073171
	-0.0206639566396
	-0.0205962059621
	-0.0205284552846
	-0.020460704607
	-0.0203929539295
	-0.020325203252
	-0.0202574525745
	-0.020189701897
	-0.0201219512195
	-0.020054200542
	-0.0199864498645
	-0.019918699187
	-0.0198509485095
	-0.019783197832
	-0.0197154471545
	-0.019647696477
	-0.0195799457995
	-0.019512195122
	-0.0194444444444
	-0.0193766937669
	-0.0193089430894
	-0.0192411924119
	-0.0191734417344
	-0.0191056910569
	-0.0190379403794
	-0.0189701897019
	-0.0189024390244
	-0.0188346883469
	-0.0187669376694
	-0.0186991869919
	-0.0186314363144
	-0.0185636856369
	-0.0184959349593
	-0.0184281842818
	-0.0183604336043
	-0.0182926829268
	-0.0182249322493
	-0.0181571815718
	-0.0180894308943
	-0.0180216802168
	-0.0179539295393
	-0.0178861788618
	-0.0178184281843
	-0.0177506775068
	-0.0176829268293
	-0.0176151761518
	-0.0175474254743
	-0.0174796747967
	-0.0174119241192
	-0.0173441734417
	-0.0172764227642
	-0.0172086720867
	-0.0171409214092
	-0.0170731707317
	-0.0170054200542
	-0.0169376693767
	-0.0168699186992
	-0.0168021680217
	-0.0167344173442
	-0.0166666666667
	-0.0165989159892
	-0.0165311653117
	-0.0164634146341
	-0.0163956639566
	-0.0163279132791
	-0.0162601626016
	-0.0161924119241
	-0.0161246612466
	-0.0160569105691
	-0.0159891598916
	-0.0159214092141
	-0.0158536585366
	-0.0157859078591
	-0.0157181571816
	-0.0156504065041
	-0.0155826558266
	-0.0155149051491
	-0.0154471544715
	-0.015379403794
	-0.0153116531165
	-0.015243902439
	-0.0151761517615
	-0.015108401084
	-0.0150406504065
	-0.014972899729
	-0.0149051490515
	-0.014837398374
	-0.0147696476965
	-0.014701897019
	-0.0146341463415
	-0.014566395664
	-0.0144986449864
	-0.0144308943089
	-0.0143631436314
	-0.0142953929539
	-0.0142276422764
	-0.0141598915989
	-0.0140921409214
	-0.0140243902439
	-0.0139566395664
	-0.0138888888889
	-0.0138211382114
	-0.0137533875339
	-0.0136856368564
	-0.0136178861789
	-0.0135501355014
	-0.0134823848238
	-0.0134146341463
	-0.0133468834688
	-0.0132791327913
	-0.0132113821138
	-0.0131436314363
	-0.0130758807588
	-0.0130081300813
	-0.0129403794038
	-0.0128726287263
	-0.0128048780488
	-0.0127371273713
	-0.0126693766938
	-0.0126016260163
	-0.0125338753388
	-0.0124661246612
	-0.0123983739837
	-0.0123306233062
	-0.0122628726287
	-0.0121951219512
	-0.0121273712737
	-0.0120596205962
	-0.0119918699187
	-0.0119241192412
	-0.0118563685637
	-0.0117886178862
	-0.0117208672087
	-0.0116531165312
	-0.0115853658537
	-0.0115176151762
	-0.0114498644986
	-0.0113821138211
	-0.0113143631436
	-0.0112466124661
	-0.0111788617886
	-0.0111111111111
	-0.0110433604336
	-0.0109756097561
	-0.0109078590786
	-0.0108401084011
	-0.0107723577236
	-0.0107046070461
	-0.0106368563686
	-0.0105691056911
	-0.0105013550136
	-0.010433604336
	-0.0103658536585
	-0.010298102981
	-0.0102303523035
	-0.010162601626
	-0.0100948509485
	-0.010027100271
	-0.0099593495935
	-0.00989159891599
	-0.00982384823848
	-0.00975609756098
	-0.00968834688347
	-0.00962059620596
	-0.00955284552846
	-0.00948509485095
	-0.00941734417344
	-0.00934959349593
	-0.00928184281843
	-0.00921409214092
	-0.00914634146341
	-0.00907859078591
	-0.0090108401084
	-0.00894308943089
	-0.00887533875339
	-0.00880758807588
	-0.00873983739837
	-0.00867208672087
	-0.00860433604336
	-0.00853658536585
	-0.00846883468835
	-0.00840108401084
	-0.00833333333333
	-0.00826558265583
	-0.00819783197832
	-0.00813008130081
	-0.00806233062331
	-0.0079945799458
	-0.00792682926829
	-0.00785907859079
	-0.00779132791328
	-0.00772357723577
	-0.00765582655827
	-0.00758807588076
	-0.00752032520325
	-0.00745257452575
	-0.00738482384824
	-0.00731707317073
	-0.00724932249322
	-0.00718157181572
	-0.00711382113821
	-0.0070460704607
	-0.0069783197832
	-0.00691056910569
	-0.00684281842818
	-0.00677506775068
	-0.00670731707317
	-0.00663956639566
	-0.00657181571816
	-0.00650406504065
	-0.00643631436314
	-0.00636856368564
	-0.00630081300813
	-0.00623306233062
	-0.00616531165312
	-0.00609756097561
	-0.0060298102981
	-0.0059620596206
	-0.00589430894309
	-0.00582655826558
	-0.00575880758808
	-0.00569105691057
	-0.00562330623306
	-0.00555555555556
	-0.00548780487805
	-0.00542005420054
	-0.00535230352304
	-0.00528455284553
	-0.00521680216802
	-0.00514905149051
	-0.00508130081301
	-0.0050135501355
	-0.00494579945799
	-0.00487804878049
	-0.00481029810298
	-0.00474254742547
	-0.00467479674797
	-0.00460704607046
	-0.00453929539295
	-0.00447154471545
	-0.00440379403794
	-0.00433604336043
	-0.00426829268293
	-0.00420054200542
	-0.00413279132791
	-0.00406504065041
	-0.0039972899729
	-0.00392953929539
	-0.00386178861789
	-0.00379403794038
	-0.00372628726287
	-0.00365853658537
	-0.00359078590786
	-0.00352303523035
	-0.00345528455285
	-0.00338753387534
	-0.00331978319783
	-0.00325203252033
	-0.00318428184282
	-0.00311653116531
	-0.0030487804878
	-0.0029810298103
	-0.00291327913279
	-0.00284552845528
	-0.00277777777778
	-0.00271002710027
	-0.00264227642276
	-0.00257452574526
	-0.00250677506775
	-0.00243902439024
	-0.00237127371274
	-0.00230352303523
	-0.00223577235772
	-0.00216802168022
	-0.00210027100271
	-0.0020325203252
	-0.0019647696477
	-0.00189701897019
	-0.00182926829268
	-0.00176151761518
	-0.00169376693767
	-0.00162601626016
	-0.00155826558266
	-0.00149051490515
	-0.00142276422764
	-0.00135501355014
	-0.00128726287263
	-0.00121951219512
	-0.00115176151762
	-0.00108401084011
	-0.0010162601626
	-0.000948509485095
	-0.000880758807588
	-0.000813008130081
	-0.000745257452575
	-0.000677506775068
	-0.000609756097561
	-0.000542005420054
	-0.000474254742547
	-0.000406504065041
	-0.000338753387534
	-0.000271002710027
	-0.00020325203252
	-0.000135501355014
	-6.77506775068e-05
	0.0
	6.77506775068e-05
	0.000135501355014
	0.00020325203252
	0.000271002710027
	0.000338753387534
	0.000406504065041
	0.000474254742547
	0.000542005420054
	0.000609756097561
	0.000677506775068
	0.000745257452575
	0.000813008130081
	0.000880758807588
	0.000948509485095
	0.0010162601626
	0.00108401084011
	0.00115176151762
	0.00121951219512
	0.00128726287263
	0.00135501355014
	0.00142276422764
	0.00149051490515
	0.00155826558266
	0.00162601626016
	0.00169376693767
	0.00176151761518
	0.00182926829268
	0.00189701897019
	0.0019647696477
	0.0020325203252
	0.00210027100271
	0.00216802168022
	0.00223577235772
	0.00230352303523
	0.00237127371274
	0.00243902439024
	0.00250677506775
	0.00257452574526
	0.00264227642276
	0.00271002710027
	0.00277777777778
	0.00284552845528
	0.00291327913279
	0.0029810298103
	0.0030487804878
	0.00311653116531
	0.00318428184282
	0.00325203252033
	0.00331978319783
	0.00338753387534
	0.00345528455285
	0.00352303523035
	0.00359078590786
	0.00365853658537
	0.00372628726287
	0.00379403794038
	0.00386178861789
	0.00392953929539
	0.0039972899729
	0.00406504065041
	0.00413279132791
	0.00420054200542
	0.00426829268293
	0.00433604336043
	0.00440379403794
	0.00447154471545
	0.00453929539295
	0.00460704607046
	0.00467479674797
	0.00474254742547
	0.00481029810298
	0.00487804878049
	0.00494579945799
	0.0050135501355
	0.00508130081301
	0.00514905149051
	0.00521680216802
	0.00528455284553
	0.00535230352304
	0.00542005420054
	0.00548780487805
	0.00555555555556
	0.00562330623306
	0.00569105691057
	0.00575880758808
	0.00582655826558
	0.00589430894309
	0.0059620596206
	0.0060298102981
	0.00609756097561
	0.00616531165312
	0.00623306233062
	0.00630081300813
	0.00636856368564
	0.00643631436314
	0.00650406504065
	0.00657181571816
	0.00663956639566
	0.00670731707317
	0.00677506775068
	0.00684281842818
	0.00691056910569
	0.0069783197832
	0.0070460704607
	0.00711382113821
	0.00718157181572
	0.00724932249322
	0.00731707317073
	0.00738482384824
	0.00745257452575
	0.00752032520325
	0.00758807588076
	0.00765582655827
	0.00772357723577
	0.00779132791328
	0.00785907859079
	0.00792682926829
	0.0079945799458
	0.00806233062331
	0.00813008130081
	0.00819783197832
	0.00826558265583
	0.00833333333333
	0.00840108401084
	0.00846883468835
	0.00853658536585
	0.00860433604336
	0.00867208672087
	0.00873983739837
	0.00880758807588
	0.00887533875339
	0.00894308943089
	0.0090108401084
	0.00907859078591
	0.00914634146341
	0.00921409214092
	0.00928184281843
	0.00934959349593
	0.00941734417344
	0.00948509485095
	0.00955284552846
	0.00962059620596
	0.00968834688347
	0.00975609756098
	0.00982384823848
	0.00989159891599
	0.0099593495935
	0.010027100271
	0.0100948509485
	0.010162601626
	0.0102303523035
	0.010298102981
	0.0103658536585
	0.010433604336
	0.0105013550136
	0.0105691056911
	0.0106368563686
	0.0107046070461
	0.0107723577236
	0.0108401084011
	0.0109078590786
	0.0109756097561
	0.0110433604336
	0.0111111111111
	0.0111788617886
	0.0112466124661
	0.0113143631436
	0.0113821138211
	0.0114498644986
	0.0115176151762
	0.0115853658537
	0.0116531165312
	0.0117208672087
	0.0117886178862
	0.0118563685637
	0.0119241192412
	0.0119918699187
	0.0120596205962
	0.0121273712737
	0.0121951219512
	0.0122628726287
	0.0123306233062
	0.0123983739837
	0.0124661246612
	0.0125338753388
	0.0126016260163
	0.0126693766938
	0.0127371273713
	0.0128048780488
	0.0128726287263
	0.0129403794038
	0.0130081300813
	0.0130758807588
	0.0131436314363
	0.0132113821138
	0.0132791327913
	0.0133468834688
	0.0134146341463
	0.0134823848238
	0.0135501355014
	0.0136178861789
	0.0136856368564
	0.0137533875339
	0.0138211382114
	0.0138888888889
	0.0139566395664
	0.0140243902439
	0.0140921409214
	0.0141598915989
	0.0142276422764
	0.0142953929539
	0.0143631436314
	0.0144308943089
	0.0144986449864
	0.014566395664
	0.0146341463415
	0.014701897019
	0.0147696476965
	0.014837398374
	0.0149051490515
	0.014972899729
	0.0150406504065
	0.015108401084
	0.0151761517615
	0.015243902439
	0.0153116531165
	0.015379403794
	0.0154471544715
	0.0155149051491
	0.0155826558266
	0.0156504065041
	0.0157181571816
	0.0157859078591
	0.0158536585366
	0.0159214092141
	0.0159891598916
	0.0160569105691
	0.0161246612466
	0.0161924119241
	0.0162601626016
	0.0163279132791
	0.0163956639566
	0.0164634146341
	0.0165311653117
	0.0165989159892
	0.0166666666667
	0.0167344173442
	0.0168021680217
	0.0168699186992
	0.0169376693767
	0.0170054200542
	0.0170731707317
	0.0171409214092
	0.0172086720867
	0.0172764227642
	0.0173441734417
	0.0174119241192
	0.0174796747967
	0.0175474254743
	0.0176151761518
	0.0176829268293
	0.0177506775068
	0.0178184281843
	0.0178861788618
	0.0179539295393
	0.017966644526
	0.018034302953
	0.0181021012757
	0.0181700395467
	0.0182381178183
	0.018306336143
	0.0183746945731
	0.0184431931607
	0.0185118319581
	0.0185806110173
	0.0186495303904
	0.0187185901292
	0.0187877902858
	0.018857130912
	0.0189266120594
	0.0189962337798
	0.0190659961248
	0.019135899146
	0.0192059428948
	0.0192761274227
	0.0193464527811
	0.0194169190212
	0.0194875261943
	0.0195582743515
	0.0196291635439
	0.0197001938227
	0.0197713652386
	0.0198426778427
	0.0199141316858
	0.0199857268187
	0.020057463292
	0.0201293411565
	0.0202013604627
	0.0202735212611
	0.0203458236023
	0.0204182675365
	0.0204908531142
	0.0205635803856
	0.0206364494009
	0.0207094602103
	0.0207826128639
	0.0208559074116
	0.0209293439035
	0.0210029223894
	0.0210766429192
	0.0211505055427
	0.0212245103096
	0.0212986572695
	0.021372946472
	0.0214473779667
	0.0215219518031
	0.0215966680305
	0.0216715266984
	0.0217465278559
	0.0218216715525
	0.0218969578371
	0.021972386759
	0.0220479583672
	0.0221236727107
	0.0221995298385
	0.0222755297994
	0.0223516726422
	0.0224279584158
	0.0225043871688
	0.0225809589499
	0.0226576738076
	0.0227345317905
	0.0228115329471
	0.0228886773258
	0.022965964975
	0.0230433959429
	0.0231209702778
	0.023198688028
	0.0232765492414
	0.0233545539663
	0.0234327022506
	0.0235109941423
	0.0235894296893
	0.0236680089395
	0.0237467319406
	0.0238255987405
	0.0239046093867
	0.0239837639269
	0.0240630624087
	0.0241425048797
	0.0242220913872
	0.0243018219787
	0.0243816967016
	0.0244617156031
	0.0245418787306
	0.0246221861311
	0.0247026378519
	0.02478323394
	0.0248639744424
	0.0249448594062
	0.0250258888783
	0.0251070629054
	0.0251883815346
	0.0252698448125
	0.0253514527858
	0.0254332055012
	0.0255151030053
	0.0255971453446
	0.0256793325658
	0.0257616647151
	0.0258441418391
	0.025926763984
	0.0260095311962
	0.0260924435219
	0.0261755010073
	0.0262587036985
	0.0263420516417
	0.0264255448828
	0.0265091834679
	0.0265929674429
	0.0266768968536
	0.026760971746
	0.0268451921658
	0.0269295581587
	0.0270140697704
	0.0270987270465
	0.0271835300327
	0.0272684787745
	0.0273535733173
	0.0274388137066
	0.0275241999878
	0.0276097322062
	0.0276954104072
	0.0277812346358
	0.0278672049374
	0.027953321357
	0.0280395839398
	0.0281259927308
	0.028212547775
	0.0282992491173
	0.0283860968027
	0.028473090876
	0.0285602313819
	0.0286475183653
	0.0287349518709
	0.0288225319432
	0.028910258627
	0.0289981319667
	0.029086152007
	0.0291743187922
	0.0292626323668
	0.0293510927751
	0.0294397000615
	0.0295284542704
	0.0296173554458
	0.0297064036319
	0.0297955988731
	0.0298849412132
	0.0299744306964
	0.0300640673667
	0.030153851268
	0.0302437824443
	0.0303338609394
	0.0304240867971
	0.0305144600612
	0.0306049807754
	0.0306956489834
	0.0307864647289
	0.0308774280554
	0.0309685390065
	0.0310597976257
	0.0311512039564
	0.0312427580421
	0.0313344599261
	0.0314263096517
	0.0315183072623
	0.0316104528011
	0.0317027463112
	0.0317951878358
	0.031887777418
	0.0319805151009
	0.0320734009274
	0.0321664349406
	0.0322596171834
	0.0323529476987
	0.0324464265292
	0.0325400537179
	0.0326338293074
	0.0327277533405
	0.0328218258598
	0.0329160469079
	0.0330104165276
	0.0331049347612
	0.0331996016513
	0.0332944172403
	0.0333893815707
	0.0334844946847
	0.0335797566249
	0.0336751674334
	0.0337707271524
	0.0338664358243
	0.0339622934911
	0.0340583001949
	0.0341544559779
	0.0342507608821
	0.0343472149494
	0.0344438182219
	0.0345405707413
	0.0346374725497
	0.0347345236889
	0.0348317242005
	0.0349290741264
	0.0350265735083
	0.0351242223879
	0.0352220208067
	0.0353199688063
	0.0354180664284
	0.0355163137143
	0.0356147107057
	0.0357132574438
	0.0358119539701
	0.0359108003259
	0.0360097965525
	0.0361089426912
	0.0362082387833
	0.0363076848698
	0.0364072809919
	0.0365070271909
	0.0366069235076
	0.0367069699831
	0.0368071666585
	0.0369075135747
	0.0370080107725
	0.0371086582929
	0.0372094561767
	0.0373104044647
	0.0374115031976
	0.0375127524162
	0.0376141521611
	0.037715702473
	0.0378174033924
	0.03791925496
	0.0380212572162
	0.0381234102016
	0.0382257139565
	0.0383281685215
	0.0384307739368
	0.0385335302428
	0.0386364374799
	0.0387394956882
	0.038842704908
	0.0389460651794
	0.0390495765427
	0.0391532390379
	0.0392570527051
	0.0393610175843
	0.0394651337156
	0.0395694011388
	0.039673819894
	0.039778390021
	0.0398831115596
	0.0399879845497
	0.040093009031
	0.0401981850433
	0.0403035126263
	0.0404089918197
	0.040514622663
	0.040620405196
	0.040726339458
	0.0408324254888
	0.0409386633277
	0.0410450530142
	0.0411515945877
	0.0412582880876
	0.0413651335533
	0.041472131024
	0.0415792805391
	0.0416865821377
	0.0417940358591
	0.0419016417424
	0.0420093998267
	0.0421173101513
	0.042225372755
	0.042333587677
	0.0424419549563
	0.0425504746317
	0.0426591467422
	0.0427679713268
	0.0428769484242
	0.0429860780732
	0.0430953603127
	0.0432047951815
	0.0433143827181
	0.0434241229613
	0.0435340159498
	0.0436440617221
	0.0437542603169
	0.0438646117726
	0.0439751161278
	0.044085773421
	0.0441965836905
	0.0443075469749
	0.0444186633124
	0.0445299327415
	0.0446413553004
	0.0447529310274
	0.0448646599607
	0.0449765421386
	0.0450885775991
	0.0452007663806
	0.045313108521
	0.0454256040584
	0.0455382530309
	0.0456510554765
	0.0457640114332
	0.0458771209388
	0.0459903840314
	0.0461038007487
	0.0462173711287
	0.0463310952091
	0.0464449730277
	0.0465590046223
	0.0466731900306
	0.0467875292902
	0.0469020224388
	0.0470166695141
	0.0471314705535
	0.0472464255947
	0.0473615346752
	0.0474767978325
	0.047592215104
	0.0477077865271
	0.0478235121393
	0.0479393919779
	0.0480554260802
	0.0481716144835
	0.0482879572252
	0.0484044543423
	0.0485211058722
	0.048637911852
	0.0487548723189
	0.0488719873099
	0.0489892568622
	0.0491066810127
	0.0492242597985
	0.0493419932567
	0.049459881424
	0.0495779243375
	0.0496961220341
	0.0498144745506
	0.0499329819239
	0.0500516441907
	0.0501704613878
	0.050289433552
	0.0504085607199
	0.0505278429283
	0.0506472802138
	0.050766872613
	0.0508866201625
	0.0510065228988
	0.0511265808586
	0.0512467940782
	0.0513671625942
	0.051487686443
	0.0516083656609
	0.0517292002845
	0.0518501903499
	0.0519713358936
	0.0520926369519
	0.0522140935609
	0.0523357057569
	0.0524574735762
	0.0525793970549
	0.052701476229
	0.0528237111349
	0.0529461018084
	0.0530686482857
	0.0531913506028
	0.0533142087958
	0.0534372229004
	0.0535603929528
	0.0536837189888
	0.0538072010443
	0.0539308391551
	0.0540546333571
	0.054178583686
	0.0543026901776
	0.0544269528677
	0.0545513717919
	0.054675946986
	0.0548006784855
	0.0549255663262
	0.0550506105435
	0.0551758111732
	0.0553011682506
	0.0554266818113
	0.0555523518908
	0.0556781785245
	0.0558041617479
	0.0559303015964
	0.0560565981053
	0.0561830513099
	0.0563096612457
	0.0564364279478
	0.0565633514515
	0.056690431792
	0.0568176690046
	0.0569450631244
	0.0570726141866
	0.0572003222263
	0.0573281872785
	0.0574562093784
	0.0575843885609
	0.0577127248611
	0.057841218314
	0.0579698689545
	0.0580986768176
	0.0582276419381
	0.0583567643509
	0.0584860440908
	0.0586154811928
	0.0587450756915
	0.0588748276217
	0.0590047370182
	0.0591348039157
	0.0592650283489
	0.0593954103524
	0.0595259499608
	0.0596566472089
	0.059787502131
	0.0599185147619
	0.0600496851359
	0.0601810132877
	0.0603124992516
	0.0604441430622
	0.0605759447539
	0.0607079043609
	0.0608400219178
	0.0609722974589
	0.0611047310184
	0.0612373226306
	0.0613700723299
	0.0615029801504
	0.0616360461264
	0.0617692702921
	0.0619026526815
	0.0620361933289
	0.0621698922684
	0.0623037495339
	0.0624377651597
	0.0625719391796
	0.0627062716278
	0.0628407625382
	0.0629754119448
	0.0631102198814
	0.063245186382
	0.0633803114805
	0.0635155952107
	0.0636510376064
	0.0637866387015
	0.0639223985297
	0.0640583171247
	0.0641943945204
	0.0643306307504
	0.0644670258483
	0.0646035798479
	0.0647402927827
	0.0648771646864
	0.0650141955925
	0.0651513855346
	0.0652887345463
	0.0654262426609
	0.065563909912
	0.0657017363331
	0.0658397219575
	0.0659778668188
	0.0661161709501
	0.066254634385
	0.0663932571568
	0.0665320392987
	0.066670980844
	0.066810081826
	0.0669493422779
	0.067088762233
	0.0672283417244
	0.0673680807852
	0.0675079794487
	0.0676480377479
	0.0677882557159
	0.0679286333858
	0.0680691707907
	0.0682098679634
	0.0683507249371
	0.0684917417447
	0.0686329184191
	0.0687742549933
	0.0689157515002
	0.0690574079726
	0.0691992244434
	0.0693412009454
	0.0694833375114
	0.0696256341743
	0.0697680909667
	0.0699107079213
	0.070053485071
	0.0701964224484
	0.0703395200861
	0.0704827780168
	0.0706261962731
	0.0707697748876
	0.0709135138929
	0.0710574133215
	0.0712014732059
	0.0713456935786
	0.0714900744722
	0.0716346159191
	0.0717793179516
	0.0719241806023
	0.0720692039034
	0.0722143878875
	0.0723597325867
	0.0725052380334
	0.07265090426
	0.0727967312986
	0.0729427191816
	0.0730888679412
	0.0732351776095
	0.0733816482187
	0.0735282798011
	0.0736750723887
	0.0738220260137
	0.0739691407081
	0.0741164165041
	0.0742638534336
	0.0744114515287
	0.0745592108214
	0.0747071313437
	0.0748552131275
	0.0750034562048
	0.0751518606075
	0.0753004263675
	0.0754491535166
	0.0755980420867
	0.0757470921096
	0.0758963036171
	0.0760456766411
	0.0761952112132
	0.0763449073652
	0.0764947651289
	0.0766447845359
	0.0767949656178
	0.0769453084064
	0.0770958129333
	0.0772464792301
	0.0773973073283
	0.0775482972595
	0.0776994490554
	0.0778507627473
	0.0780022383668
	0.0781538759454
	0.0783056755146
	0.0784576371057
	0.0786097607502
	0.0787620464794
	0.0789144943249
	0.0790671043178
	0.0792198764895
	0.0793728108714
	0.0795259074947
	0.0796791663908
	0.0798325875907
	0.0799861711258
	0.0801399170273
	0.0802938253264
	0.0804478960541
	0.0806021292417
	0.0807565249203
	0.080911083121
	0.0810658038748
	0.0812206872128
	0.081375733166
	0.0815309417655
	0.0816863130423
	0.0818418470273
	0.0819975437514
	0.0821534032457
	0.082309425541
	0.0824656106682
	0.0826219586583
	0.0827784695419
	0.08293514335
	0.0830919801135
	0.083248979863
	0.0834061426293
	0.0835634684432
	0.0837209573355
	0.0838786093367
	0.0840364244777
	0.0841944027891
	0.0843525443015
	0.0845108490456
	0.0846693170519
	0.0848279483511
	0.0849867429738
	0.0851457009504
	0.0853048223115
	0.0854641070876
	0.0856235553092
	0.0857831670068
	0.0859429422108
	0.0861028809516
	0.0862629832597
	0.0864232491654
	0.0865836786991
	0.0867442718912
	0.086905028772
	0.0870659493718
	0.0872270337208
	0.0873882818495
	0.0875496937879
	0.0877112695664
	0.0878730092151
	0.0880349127643
	0.0881969802441
	0.0883592116846
	0.0885216071161
	0.0886841665686
	0.0888468900722
	0.089009777657
	0.089172829353
	0.0893360451904
	0.089499425199
	0.089662969409
	0.0898266778502
	0.0899905505527
	0.0901545875464
	0.0903187888612
	0.090483154527
	0.0906476845738
	0.0908123790312
	0.0909772379293
	0.0911422612979
	0.0913074491667
	0.0914728015655
	0.0916383185242
	0.0918040000724
	0.0919698462399
	0.0921358570564
	0.0923020325516
	0.0924683727553
	0.0926348776969
	0.0928015474063
	0.0929683819129
	0.0931353812465
	0.0933025454365
	0.0934698745127
	0.0936373685044
	0.0938050274412
	0.0939728513527
	0.0941408402683
	0.0943089942176
	0.0944773132299
	0.0946457973347
	0.0948144465614
	0.0949832609394
	0.0951522404981
	0.0953213852669
	0.0954906952751
	0.095660170552
	0.095829811127
	0.0959996170292
	0.0961695882881
	0.0963397249329
	0.0965100269927
	0.0966804944968
	0.0968511274745
	0.0970219259548
	0.097192889967
	0.0973640195402
	0.0975353147035
	0.097706775486
	0.0978784019169
	0.0980501940252
	0.0982221518399
	0.0983942753901
	0.0985665647049
	0.0987390198131
	0.0989116407439
	0.0990844275261
	0.0992573801888
	0.0994304987608
	0.0996037832711
	0.0997772337485
	0.099950850222
	0.10012463272
	0.100298581272
	0.100472695907
	0.100646976653
	0.100821423539
	0.100996036595
	0.101170815848
	0.101345761327
	0.101520873061
	0.10169615108
