python/GafferImageTest/openColorIO/luts/srgb.spi1d
Version 1
From -0.125 1.125
Length 4101
Components 1
{
	-0.00967492260062
	-0.00965132522842
	-0.00962772785623
	-0.00960413048403
	-0.00958053311183
	-0.00955693573964
	-0.00953333836744
	-0.00950974099524
	-0.00948614362305
	-0.00946254625085
	-0.00943894887865
	-0.00941535150646
	-0.00939175413426
	-0.00936815676206
	-0.00934455938987
	-0.00932096201767
	-0.00929736464547
	-0.00927376727328
	-0.00925016990108
	-0.00922657252888
	-0.00920297515669
	-0.00917937778449
	-0.00915578041229
	-0.0091321830401
	-0.0091085856679
	-0.0090849882957
	-0.00906139092351
	-0.00903779355131
	-0.00901419617911
	-0.00899059880692
	-0.00896700143472
	-0.00894340406252
	-0.00891980669033
	-0.00889620931813
	-0.00887261194593
	-0.00884901457374
	-0.00882541720154
	-0.00880181982934
	-0.00877822245715
	-0.00875462508495
	-0.00873102771275
	-0.00870743034056
	-0.00868383296836
	-0.00866023559616
	-0.00863663822397
	-0.00861304085177
	-0.00858944347957
	-0.00856584610738
	-0.00854224873518
	-0.00851865136298
	-0.00849505399079
	-0.00847145661859
	-0.00844785924639
	-0.0084242618742
	-0.008400664502
	-0.0083770671298
	-0.00835346975761
	-0.00832987238541
	-0.00830627501321
	-0.00828267764102
	-0.00825908026882
	-0.00823548289662
	-0.00821188552443
	-0.00818828815223
	-0.00816469078003
	-0.00814109340784
	-0.00811749603564
	-0.00809389866344
	-0.00807030129125
	-0.00804670391905
	-0.00802310654685
	-0.00799950917466
	-0.00797591180246
	-0.00795231443027
	-0.00792871705807
	-0.00790511968587
	-0.00788152231368
	-0.00785792494148
	-0.00783432756928
	-0.00781073019709
	-0.00778713282489
	-0.00776353545269
	-0.0077399380805
	-0.0077163407083
	-0.0076927433361
	-0.00766914596391
	-0.00764554859171
	-0.00762195121951
	-0.00759835384732
	-0.00757475647512
	-0.00755115910292
	-0.00752756173073
	-0.00750396435853
	-0.00748036698633
	-0.00745676961414
	-0.00743317224194
	-0.00740957486974
	-0.00738597749755
	-0.00736238012535
	-0.00733878275315
	-0.00731518538096
	-0.00729158800876
	-0.00726799063656
	-0.00724439326437
	-0.00722079589217
	-0.00719719851997
	-0.00717360114778
	-0.00715000377558
	-0.00712640640338
	-0.00710280903119
	-0.00707921165899
	-0.00705561428679
	-0.0070320169146
	-0.0070084195424
	-0.0069848221702
	-0.00696122479801
	-0.00693762742581
	-0.00691403005361
	-0.00689043268142
	-0.00686683530922
	-0.00684323793702
	-0.00681964056483
	-0.00679604319263
	-0.00677244582043
	-0.00674884844824
	-0.00672525107604
	-0.00670165370384
	-0.00667805633165
	-0.00665445895945
	-0.00663086158725
	-0.00660726421506
	-0.00658366684286
	-0.00656006947066
	-0.00653647209847
	-0.00651287472627
	-0.00648927735407
	-0.00646567998188
	-0.00644208260968
	-0.00641848523748
	-0.00639488786529
	-0.00637129049309
	-0.00634769312089
	-0.0063240957487
	-0.0063004983765
	-0.0062769010043
	-0.00625330363211
	-0.00622970625991
	-0.00620610888771
	-0.00618251151552
	-0.00615891414332
	-0.00613531677112
	-0.00611171939893
	-0.00608812202673
	-0.00606452465453
	-0.00604092728234
	-0.00601732991014
	-0.00599373253794
	-0.00597013516575
	-0.00594653779355
	-0.00592294042135
	-0.00589934304916
	-0.00587574567696
	-0.00585214830476
	-0.00582855093257
	-0.00580495356037
	-0.00578135618817
	-0.00575775881598
	-0.00573416144378
	-0.00571056407158
	-0.00568696669939
	-0.00566336932719
	-0.005639771955
	-0.0056161745828
	-0.0055925772106
	-0.00556897983841
	-0.00554538246621
	-0.00552178509401
	-0.00549818772182
	-0.00547459034962
	-0.00545099297742
	-0.00542739560523
	-0.00540379823303
	-0.00538020086083
	-0.00535660348864
	-0.00533300611644
	-0.00530940874424
	-0.00528581137205
	-0.00526221399985
	-0.00523861662765
	-0.00521501925546
	-0.00519142188326
	-0.00516782451106
	-0.00514422713887
	-0.00512062976667
	-0.00509703239447
	-0.00507343502228
	-0.00504983765008
	-0.00502624027788
	-0.00500264290569
	-0.00497904553349
	-0.00495544816129
	-0.0049318507891
	-0.0049082534169
	-0.0048846560447
	-0.00486105867251
	-0.00483746130031
	-0.00481386392811
	-0.00479026655592
	-0.00476666918372
	-0.00474307181152
	-0.00471947443933
	-0.00469587706713
	-0.00467227969493
	-0.00464868232274
	-0.00462508495054
	-0.00460148757834
	-0.00457789020615
	-0.00455429283395
	-0.00453069546175
	-0.00450709808956
	-0.00448350071736
	-0.00445990334516
	-0.00443630597297
	-0.00441270860077
	-0.00438911122857
	-0.00436551385638
	-0.00434191648418
	-0.00431831911198
	-0.00429472173979
	-0.00427112436759
	-0.00424752699539
	-0.0042239296232
	-0.004200332251
	-0.0041767348788
	-0.00415313750661
	-0.00412954013441
	-0.00410594276221
	-0.00408234539002
	-0.00405874801782
	-0.00403515064562
	-0.00401155327343
	-0.00398795590123
	-0.00396435852903
	-0.00394076115684
	-0.00391716378464
	-0.00389356641244
	-0.00386996904025
	-0.00384637166805
	-0.00382277429585
	-0.00379917692366
	-0.00377557955146
	-0.00375198217926
	-0.00372838480707
	-0.00370478743487
	-0.00368119006267
	-0.00365759269048
	-0.00363399531828
	-0.00361039794608
	-0.00358680057389
	-0.00356320320169
	-0.00353960582949
	-0.0035160084573
	-0.0034924110851
	-0.0034688137129
	-0.00344521634071
	-0.00342161896851
	-0.00339802159632
	-0.00337442422412
	-0.00335082685192
	-0.00332722947973
	-0.00330363210753
	-0.00328003473533
	-0.00325643736314
	-0.00323283999094
	-0.00320924261874
	-0.00318564524655
	-0.00316204787435
	-0.00313845050215
	-0.00311485312996
	-0.00309125575776
	-0.00306765838556
	-0.00304406101337
	-0.00302046364117
	-0.00299686626897
	-0.00297326889678
	-0.00294967152458
	-0.00292607415238
	-0.00290247678019
	-0.00287887940799
	-0.00285528203579
	-0.0028316846636
	-0.0028080872914
	-0.0027844899192
	-0.00276089254701
	-0.00273729517481
	-0.00271369780261
	-0.00269010043042
	-0.00266650305822
	-0.00264290568602
	-0.00261930831383
	-0.00259571094163
	-0.00257211356943
	-0.00254851619724
	-0.00252491882504
	-0.00250132145284
	-0.00247772408065
	-0.00245412670845
	-0.00243052933625
	-0.00240693196406
	-0.00238333459186
	-0.00235973721966
	-0.00233613984747
	-0.00231254247527
	-0.00228894510307
	-0.00226534773088
	-0.00224175035868
	-0.00221815298648
	-0.00219455561429
	-0.00217095824209
	-0.00214736086989
	-0.0021237634977
	-0.0021001661255
	-0.0020765687533
	-0.00205297138111
	-0.00202937400891
	-0.00200577663671
	-0.00198217926452
	-0.00195858189232
	-0.00193498452012
	-0.00191138714793
	-0.00188778977573
	-0.00186419240353
	-0.00184059503134
	-0.00181699765914
	-0.00179340028694
	-0.00176980291475
	-0.00174620554255
	-0.00172260817035
	-0.00169901079816
	-0.00167541342596
	-0.00165181605376
	-0.00162821868157
	-0.00160462130937
	-0.00158102393717
	-0.00155742656498
	-0.00153382919278
	-0.00151023182058
	-0.00148663444839
	-0.00146303707619
	-0.00143943970399
	-0.0014158423318
	-0.0013922449596
	-0.0013686475874
	-0.00134505021521
	-0.00132145284301
	-0.00129785547081
	-0.00127425809862
	-0.00125066072642
	-0.00122706335422
	-0.00120346598203
	-0.00117986860983
	-0.00115627123763
	-0.00113267386544
	-0.00110907649324
	-0.00108547912105
	-0.00106188174885
	-0.00103828437665
	-0.00101468700446
	-0.000991089632259
	-0.000967492260062
	-0.000943894887865
	-0.000920297515669
	-0.000896700143472
	-0.000873102771275
	-0.000849505399079
	-0.000825908026882
	-0.000802310654685
	-0.000778713282489
	-0.000755115910292
	-0.000731518538096
	-0.000707921165899
	-0.000684323793702
	-0.000660726421506
	-0.000637129049309
	-0.000613531677112
	-0.000589934304916
	-0.000566336932719
	-0.000542739560523
	-0.000519142188326
	-0.000495544816129
	-0.000471947443933
	-0.000448350071736
	-0.000424752699539
	-0.000401155327343
	-0.000377557955146
	-0.000353960582949
	-0.000330363210753
	-0.000306765838556
	-0.00028316846636
	-0.000259571094163
	-0.000235973721966
	-0.00021237634977
	-0.000188778977573
	-0.000165181605376
	-0.00014158423318
	-0.000117986860983
	-9.43894887865e-05
	-7.07921165899e-05
	-4.71947443933e-05
	-2.35973721966e-05
	0.0
	2.35973721966e-05
	4.71947443933e-05
	7.07921165899e-05
	9.43894887865e-05
	0.000117986860983
	0.00014158423318
	0.000165181605376
	0.000188778977573
	0.00021237634977
	0.000235973721966
	0.000259571094163
	0.00028316846636
	0.000306765838556
	0.000330363210753
	0.000353960582949
	0.000377557955146
	0.000401155327343
	0.000424752699539
	0.000448350071736
	0.000471947443933
	0.000495544816129
	0.000519142188326
	0.000542739560523
	0.000566336932719
	0.000589934304916
	0.000613531677112
	0.000637129049309
	0.000660726421506
	0.000684323793702
	0.000707921165899
	0.000731518538096
	0.000755115910292
	0.000778713282489
	0.000802310654685
	0.000825908026882
	0.000849505399079
	0.000873102771275
	0.000896700143472
	0.000920297515669
	0.000943894887865
	0.000967492260062
	0.000991089632259
	0.00101468700446
	0.00103828437665
	0.00106188174885
	0.00108547912105
	0.00110907649324
	0.00113267386544
	0.00115627123763
	0.00117986860983
	0.00120346598203
	0.00122706335422
	0.00125066072642
	0.00127425809862
	0.00129785547081
	0.00132145284301
	0.00134505021521
	0.0013686475874
	0.0013922449596
	0.0014158423318
	0.00143943970399
	0.00146303707619
	0.00148663444839
	0.00151023182058
	0.00153382919278
	0.00155742656498
	0.00158102393717
	0.00160462130937
	0.00162821868157
	0.00165181605376
	0.00167541342596
	0.00169901079816
	0.00172260817035
	0.00174620554255
	0.00176980291475
	0.00179340028694
	0.00181699765914
	0.00184059503134
	0.00186419240353
	0.00188778977573
	0.00191138714793
	0.00193498452012
	0.00195858189232
	0.00198217926452
	0.00200577663671
	0.00202937400891
	0.00205297138111
	0.0020765687533
	0.0021001661255
	0.0021237634977
	0.00214736086989
	0.00217095824209
	0.00219455561429
	0.00221815298648
	0.00224175035868
	0.00226534773088
	0.00228894510307
	0.00231254247527
	0.00233613984747
	0.00235973721966
	0.00238333459186
	0.00240693196406
	0.00243052933625
	0.00245412670845
	0.00247772408065
	0.00250132145284
	0.00252491882504
	0.00254851619724
	0.00257211356943
	0.00259571094163
	0.00261930831383
	0.00264290568602
	0.00266650305822
	0.00269010043042
	0.00271369780261
	0.00273729517481
	0.00276089254701
	0.0027844899192
	0.0028080872914
	0.0028316846636
	0.00285528203579
	0.00287887940799
	0.00290247678019
	0.00292607415238
	0.00294967152458
	0.00297326889678
	0.00299686626897
	0.00302046364117
	0.00304406101337
	0.00306765838556
	0.00309125575776
	0.00311485312996
	0.0031385890345
	0.00316267788401
	0.00318687423862
	0.00321117823498
	0.00323559000948
	0.00326010969823
	0.00328473743711
	0.00330947336173
	0.00333431760746
	0.00335927030939
	0.00338433160238
	0.00340950162104
	0.00343478049972
	0.00346016837252
	0.0034856653733
	0.00351127163568
	0.00353698729303
	0.00356281247846
	0.00358874732486
	0.00361479196487
	0.0036409465309
	0.00366721115511
	0.00369358596941
	0.0037200711055
	0.00374666669484
	0.00377337286863
	0.00380018975787
	0.00382711749331
	0.00385415620548
	0.00388130602466
	0.00390856708091
	0.00393593950409
	0.00396342342379
	0.0039910189694
	0.00401872627008
	0.00404654545476
	0.00407447665216
	0.00410251999077
	0.00413067559886
	0.00415894360449
	0.00418732413548
	0.00421581731946
	0.00424442328382
	0.00427314215575
	0.00430197406221
	0.00433091912997
	0.00435997748556
	0.00438914925532
	0.00441843456538
	0.00444783354163
	0.00447734630978
	0.00450697299533
	0.00453671372356
	0.00456656861956
	0.00459653780821
	0.00462662141416
	0.0046568195619
	0.00468713237568
	0.00471755997958
	0.00474810249745
	0.00477876005296
	0.00480953276957
	0.00484042077055
	0.00487142417896
	0.00490254311768
	0.00493377770939
	0.00496512807657
	0.0049965943415
	0.00502817662628
	0.0050598750528
	0.00509168974279
	0.00512362081776
	0.00515566839903
	0.00518783260776
	0.00522011356488
	0.00525251139117
	0.0052850262072
	0.00531765813336
	0.00535040728986
	0.00538327379672
	0.00541625777377
	0.00544935934067
	0.0054825786169
	0.00551591572174
	0.00554937077429
	0.0055829438935
	0.00561663519811
	0.00565044480668
	0.00568437283762
	0.00571841940914
	0.00575258463927
	0.00578686864589
	0.00582127154667
	0.00585579345914
	0.00589043450063
	0.00592519478831
	0.00596007443917
	0.00599507357003
	0.00603019229756
	0.00606543073822
	0.00610078900832
	0.00613626722402
	0.00617186550129
	0.00620758395592
	0.00624342270356
	0.00627938185968
	0.00631546153959
	0.00635166185843
	0.00638798293118
	0.00642442487264
	0.00646098779746
	0.00649767182014
	0.006534477055
	0.0065714036162
	0.00660845161773
	0.00664562117345
	0.00668291239704
	0.00672032540201
	0.00675786030174
	0.00679551720942
	0.00683329623811
	0.0068711975007
	0.00690922110993
	0.00694736717837
	0.00698563581845
	0.00702402714244
	0.00706254126247
	0.00710117829048
	0.0071399383383
	0.00717882151758
	0.00721782793983
	0.0072569577164
	0.00729621095851
	0.0073355877772
	0.00737508828338
	0.00741471258781
	0.00745446080109
	0.00749433303369
	0.00753432939592
	0.00757444999795
	0.00761469494979
	0.00765506436132
	0.00769555834227
	0.00773617700222
	0.00777692045062
	0.00781778879675
	0.00785878214977
	0.00789990061869
	0.00794114431238
	0.00798251333957
	0.00802400780883
	0.00806562782861
	0.00810737350722
	0.00814924495281
	0.00819124227342
	0.00823336557692
	0.00827561497107
	0.00831799056348
	0.0083604924616
	0.00840312077279
	0.00844587560423
	0.008488757063
	0.00853176525601
	0.00857490029005
	0.00861816227179
	0.00866155130774
	0.0087050675043
	0.00874871096771
	0.0087924818041
	0.00883638011947
	0.00888040601966
	0.00892455961041
	0.0089688409973
	0.00901325028581
	0.00905778758127
	0.00910245298887
	0.0091472466137
	0.00919216856071
	0.0092372189347
	0.00928239784036
	0.00932770538227
	0.00937314166485
	0.0094187067924
	0.00946440086912
	0.00951022399905
	0.00955617628612
	0.00960225783414
	0.00964846874678
	0.0096948091276
	0.00974127908002
	0.00978787870736
	0.0098346081128
	0.00988146739939
	0.00992845667008
	0.00997557602767
	0.0100228255749
	0.0100702054142
	0.0101177156482
	0.0101653563792
	0.0102131277093
	0.0102610297407
	0.0103090625753
	0.010357226315
	0.0104055210615
	0.0104539469164
	0.0105025039813
	0.0105511923574
	0.0106000121461
	0.0106489634486
	0.0106980463657
	0.0107472609986
	0.0107966074478
	0.0108460858142
	0.0108956961983
	0.0109454387006
	0.0109953134213
	0.0110453204607
	0.011095459919
	0.011145731896
	0.0111961364918
	0.011246673806
	0.0112973439383
	0.0113481469883
	0.0113990830554
	0.0114501522389
	0.011501354638
	0.0115526903519
	0.0116041594794
	0.0116557621196
	0.0117074983712
	0.0117593683328
	0.0118113721029
	0.0118635097801
	0.0119157814627
	0.0119681872489
	0.0120207272367
	0.0120734015243
	0.0121262102095
	0.0121791533901
	0.0122322311638
	0.0122854436282
	0.0123387908808
	0.0123922730189
	0.0124458901399
	0.0124996423408
	0.0125535297187
	0.0126075523707
	0.0126617103934
	0.0127160038838
	0.0127704329384
	0.0128249976537
	0.0128796981262
	0.0129345344523
	0.0129895067281
	0.0130446150498
	0.0130998595134
	0.0131552402149
	0.01321075725
	0.0132664107145
	0.013322200704
	0.0133781273141
	0.0134341906401
	0.0134903907774
	0.0135467278211
	0.0136032018666
	0.0136598130086
	0.0137165613422
	0.0137734469623
	0.0138304699634
	0.0138876304403
	0.0139449284876
	0.0140023641995
	0.0140599376705
	0.0141176489949
	0.0141754982666
	0.0142334855799
	0.0142916110287
	0.0143498747068
	0.014408276708
	0.0144668171259
	0.0145254960541
	0.0145843135862
	0.0146432698154
	0.0147023648351
	0.0147615987385
	0.0148209716187
	0.0148804835686
	0.0149401346812
	0.0149999250493
	0.0150598547657
	0.0151199239229
	0.0151801326136
	0.0152404809302
	0.0153009689649
	0.0153615968102
	0.0154223645582
	0.0154832723009
	0.0155443201304
	0.0156055081386
	0.0156668364173
	0.0157283050581
	0.0157899141528
	0.015851663793
	0.0159135540699
	0.0159755850751
	0.0160377568997
	0.0161000696351
	0.0161625233722
	0.0162251182021
	0.0162878542158
	0.016350731504
	0.0164137501575
	0.016476910267
	0.016540211923
	0.0166036552161
	0.0166672402366
	0.0167309670748
	0.0167948358211
	0.0168588465654
	0.016922999398
	0.0169872944087
	0.0170517316874
	0.017116311324
	0.0171810334081
	0.0172458980295
	0.0173109052775
	0.0173760552418
	0.0174413480117
	0.0175067836764
	0.0175723623252
	0.0176380840473
	0.0177039489316
	0.0177699570671
	0.0178361085427
	0.0179024034472
	0.0179688418694
	0.0180354238978
	0.0181021496209
	0.0181690191274
	0.0182360325055
	0.0183031898435
	0.0183704912298
	0.0184379367523
	0.0185055264993
	0.0185732605586
	0.0186411390182
	0.0187091619659
	0.0187773294894
	0.0188456416764
	0.0189140986145
	0.0189827003912
	0.0190514470939
	0.0191203388099
	0.0191893756265
	0.019258557631
	0.0193278849103
	0.0193973575516
	0.0194669756418
	0.0195367392677
	0.0196066485162
	0.019676703474
	0.0197469042277
	0.0198172508639
	0.0198877434691
	0.0199583821296
	0.0200291669319
	0.0201000979621
	0.0201711753065
	0.0202423990512
	0.0203137692821
	0.0203852860853
	0.0204569495466
	0.0205287597519
	0.0206007167868
	0.020672820737
	0.020745071688
	0.0208174697255
	0.0208900149348
	0.0209627074012
	0.0210355472101
	0.0211085344467
	0.021181669196
	0.0212549515432
	0.0213283815732
	0.021401959371
	0.0214756850213
	0.021549558609
	0.0216235802187
	0.0216977499351
	0.0217720678426
	0.0218465340259
	0.0219211485693
	0.021995911557
	0.0220708230735
	0.0221458832028
	0.0222210920291
	0.0222964496364
	0.0223719561088
	0.02244761153
	0.0225234159839
	0.0225993695544
	0.0226754723251
	0.0227517243795
	0.0228281258014
	0.022904676674
	0.0229813770809
	0.0230582271055
	0.0231352268308
	0.0232123763403
	0.0232896757169
	0.0233671250438
	0.023444724404
	0.0235224738803
	0.0236003735557
	0.0236784235129
	0.0237566238346
	0.0238349746036
	0.0239134759023
	0.0239921278133
	0.0240709304191
	0.024149883802
	0.0242289880444
	0.0243082432284
	0.0243876494363
	0.0244672067502
	0.0245469152521
	0.024626775024
	0.0247067861478
	0.0247869487054
	0.0248672627785
	0.0249477284489
	0.0250283457981
	0.0251091149078
	0.0251900358596
	0.0252711087347
	0.0253523336147
	0.0254337105808
	0.0255152397143
	0.0255969210965
	0.0256787548083
	0.0257607409309
	0.0258428795452
	0.0259251707322
	0.0260076145728
	0.0260902111478
	0.0261729605378
	0.0262558628236
	0.0263389180858
	0.0264221264049
	0.0265054878614
	0.0265890025358
	0.0266726705083
	0.0267564918593
	0.026840466669
	0.0269245950175
	0.0270088769851
	0.0270933126516
	0.0271779020971
	0.0272626454016
	0.0273475426448
	0.0274325939065
	0.0275177992666
	0.0276031588046
	0.0276886726001
	0.0277743407328
	0.027860163282
	0.0279461403273
	0.0280322719479
	0.0281185582232
	0.0282049992324
	0.0282915950547
	0.0283783457692
	0.0284652514549
	0.0285523121909
	0.0286395280562
	0.0287268991294
	0.0288144254896
	0.0289021072154
	0.0289899443855
	0.0290779370787
	0.0291660853733
	0.0292543893481
	0.0293428490813
	0.0294314646515
	0.029520236137
	0.029609163616
	0.0296982471668
	0.0297874868674
	0.0298768827962
	0.029966435031
	0.0300561436499
	0.0301460087307
	0.0302360303515
	0.0303262085899
	0.0304165435238
	0.0305070352307
	0.0305976837885
	0.0306884892746
	0.0307794517666
	0.0308705713419
	0.030961848078
	0.0310532820522
	0.0311448733418
	0.031236622024
	0.0313285281761
	0.0314205918751
	0.0315128131981
	0.0316051922222
	0.0316977290242
	0.0317904236811
	0.0318832762697
	0.0319762868669
	0.0320694555492
	0.0321627823935
	0.0322562674764
	0.0323499108743
	0.0324437126639
	0.0325376729215
	0.0326317917235
	0.0327260691464
	0.0328205052664
	0.0329151001597
	0.0330098539025
	0.0331047665709
	0.033199838241
	0.0332950689888
	0.0333904588903
	0.0334860080213
	0.0335817164578
	0.0336775842755
	0.0337736115501
	0.0338697983574
	0.033966144773
	0.0340626508725
	0.0341593167313
	0.034256142425
	0.034353128029
	0.0344502736186
	0.0345475792692
	0.0346450450561
	0.0347426710544
	0.0348404573392
	0.0349384039858
	0.0350365110691
	0.0351347786641
	0.0352332068458
	0.0353317956891
	0.0354305452689
	0.0355294556598
	0.0356285269366
	0.0357277591741
	0.0358271524468
	0.0359267068294
	0.0360264223963
	0.0361262992221
	0.0362263373811
	0.0363265369477
	0.0364268979963
	0.0365274206011
	0.0366281048364
	0.0367289507762
	0.0368299584948
	0.0369311280662
	0.0370324595644
	0.0371339530634
	0.037235608637
	0.0373374263592
	0.0374394063038
	0.0375415485445
	0.037643853155
	0.037746320209
	0.0378489497802
	0.037951741942
	0.038054696768
	0.0381578143316
	0.0382610947063
	0.0383645379655
	0.0384681441823
	0.0385719134302
	0.0386758457823
	0.0387799413118
	0.0388842000918
	0.0389886221953
	0.0390932076954
	0.0391979566651
	0.0393028691773
	0.0394079453048
	0.0395131851204
	0.039618588697
	0.0397241561073
	0.039829887424
	0.0399357827196
	0.0400418420667
	0.040148065538
	0.0402544532058
	0.0403610051427
	0.0404677214209
	0.0405746021129
	0.040681647291
	0.0407888570273
	0.0408962313941
	0.0410037704635
	0.0411114743077
	0.0412193429986
	0.0413273766084
	0.0414355752089
	0.0415439388721
	0.0416524676699
	0.041761161674
	0.0418700209563
	0.0419790455884
	0.0420882356421
	0.0421975911889
	0.0423071123006
	0.0424167990485
	0.0425266515043
	0.0426366697393
	0.042746853825
	0.0428572038327
	0.0429677198337
	0.0430784018994
	0.0431892501008
	0.0433002645092
	0.0434114451957
	0.0435227922315
	0.0436343056874
	0.0437459856346
	0.0438578321439
	0.0439698452863
	0.0440820251327
	0.0441943717537
	0.0443068852203
	0.0444195656031
	0.0445324129727
	0.0446454273999
	0.0447586089552
	0.0448719577092
	0.0449854737323
	0.0450991570949
	0.0452130078676
	0.0453270261206
	0.0454412119244
	0.0455555653491
	0.0456700864649
	0.0457847753421
	0.0458996320509
	0.0460146566613
	0.0461298492433
	0.046245209867
	0.0463607386023
	0.0464764355192
	0.0465923006876
	0.0467083341772
	0.0468245360579
	0.0469409063994
	0.0470574452714
	0.0471741527436
	0.0472910288857
	0.0474080737671
	0.0475252874574
	0.0476426700262
	0.0477602215427
	0.0478779420766
	0.0479958316971
	0.0481138904735
	0.0482321184751
	0.0483505157711
	0.0484690824308
	0.0485878185233
	0.0487067241177
	0.0488257992831
	0.0489450440884
	0.0490644586027
	0.0491840428949
	0.0493037970339
	0.0494237210886
	0.0495438151277
	0.0496640792201
	0.0497845134344
	0.0499051178394
	0.0500258925036
	0.0501468374958
	0.0502679528845
	0.0503892387381
	0.0505106951252
	0.0506323221142
	0.0507541197736
	0.0508760881716
	0.0509982273765
	0.0511205374567
	0.0512430184805
	0.0513656705159
	0.0514884936311
	0.0516114878943
	0.0517346533735
	0.0518579901367
	0.051981498252
	0.0521051777872
	0.0522290288104
	0.0523530513893
	0.0524772455919
	0.0526016114858
	0.0527261491388
	0.0528508586187
	0.0529757399931
	0.0531007933296
	0.0532260186959
	0.0533514161594
	0.0534769857877
	0.0536027276483
	0.0537286418086
	0.0538547283359
	0.0539809872976
	0.0541074187611
	0.0542340227936
	0.0543607994623
	0.0544877488345
	0.0546148709772
	0.0547421659577
	0.0548696338429
	0.0549972746999
	0.0551250885958
	0.0552530755974
	0.0553812357717
	0.0555095691856
	0.0556380759059
	0.0557667559994
	0.0558956095329
	0.0560246365731
	0.0561538371867
	0.0562832114404
	0.0564127594007
	0.0565424811343
	0.0566723767076
	0.0568024461872
	0.0569326896395
	0.057063107131
	0.057193698728
	0.0573244644969
	0.0574554045039
	0.0575865188155
	0.0577178074976
	0.0578492706167
	0.0579809082388
	0.0581127204301
	0.0582447072565
	0.0583768687843
	0.0585092050793
	0.0586417162076
	0.0587744022351
	0.0589072632276
	0.0590402992511
	0.0591735103713
	0.0593068966541
	0.0594404581651
	0.0595741949702
	0.0597081071348
	0.0598421947248
	0.0599764578057
	0.060110896443
	0.0602455107023
	0.0603803006491
	0.0605152663488
	0.0606504078668
	0.0607857252685
	0.0609212186193
	0.0610568879844
	0.0611927334292
	0.0613287550188
	0.0614649528185
	0.0616013268934
	0.0617378773086
	0.0618746041293
	0.0620115074204
	0.062148587247
	0.0622858436742
	0.0624232767667
	0.0625608865896
	0.0626986732076
	0.0628366366858
	0.0629747770887
	0.0631130944813
	0.0632515889282
	0.0633902604941
	0.0635291092438
	0.0636681352417
	0.0638073385526
	0.0639467192409
	0.0640862773712
	0.064226013008
	0.0643659262156
	0.0645060170586
	0.0646462856013
	0.0647867319081
	0.0649273560432
	0.0650681580709
	0.0652091380555
	0.0653502960612
	0.0654916321521
	0.0656331463924
	0.0657748388461
	0.0659167095774
